%
(1001)
(T2 D=6. CR=0. - ZMIN=0.5 - FLAT END MILL)
N10 G90 G94 G17 G91.1
N15 G21
N20 G53 G0 Z0.
(1)
N25 T2 M6
N30 S16000 M3
N35 G17 G90 G94
N40 G54
N45 G64 P0.01 Q0.01
N50 M8
N55 G0 X64.9 Y-28.954
N60 G43 Z21. H2
N65 G0 Z11.
N70 G1 Z6.1 F200.
N75 G18 G3 X64.3 Z5.5 I-0.6 K0. F2500.
N80 G1 X64.01
N85 X-64.01
N90 G17 G2 Y-24.949 I0. J2.002
N95 G1 X64.01
N100 G3 Y-20.945 I0. J2.002
N105 G1 X-64.01
N110 G2 Y-16.94 I0. J2.002
N115 G1 X64.01
N120 G3 Y-12.936 I0. J2.002
N125 G1 X-64.01
N130 G2 Y-8.932 I0. J2.002
N135 G1 X64.01
N140 G3 Y-4.927 I0. J2.002
N145 G1 X-64.01
N150 G2 Y-0.923 I0. J2.002
N155 G1 X64.01
N160 G3 Y3.082 I0. J2.002
N165 G1 X-64.01
N170 G2 Y7.086 I0. J2.002
N175 G1 X64.01
N180 G3 Y11.09 I0. J2.002
N185 G1 X-64.01
N190 G2 Y15.095 I0. J2.002
N195 G1 X64.01
N200 G3 Y19.099 I0. J2.002
N205 G1 X-64.01
N210 G2 Y23.104 I0. J2.002
N215 G1 X64.01
N220 G3 Y27.108 I0. J2.002
N225 G1 X-64.01
N230 G18 G3 X-64.61 Z6.1 I0. K0.6
N235 G0 Z21.
N240 G17
(1)
N245 G64 P0.1 Q0.1
N250 G0 X-3.976 Y-3.888
N255 Z21.
N260 Z11.
N265 Z8.5
N270 G3 X0.417 Y-6.122 Z8.297 I2.954 J0.373 F200.
N275 X0.867 Y-1.22 Z8.095 I-1.437 J2.604
N280 X-3.848 Y-2.612 Z7.892 I-1.886 J-2.295
N285 X-0.815 Y-6.474 Z7.689 I2.826 J-0.902
N290 X1.649 Y-2.233 Z7.486 I-0.206 J2.956
N295 X-3.197 Y-1.512 Z7.284 I-2.667 J-1.283
N300 X-2.076 Y-6.275 Z7.081 I2.176 J-2.002
N305 X1.93 Y-3.477 Z6.878 I1.054 J2.758
N310 X-2.146 Y-0.792 Z6.676 I-2.949 J-0.04
N315 X-3.133 Y-5.567 Z6.473 I1.126 J-2.722
N320 X1.663 Y-4.719 Z6.27 I2.11 J2.05
N325 X-0.895 Y-0.582 Z6.068 I-2.682 J1.201
N330 X-3.79 Y-4.483 Z5.865 I-0.124 J-2.932
N335 X0.899 Y-5.729 Z5.662 I2.767 J0.967
N340 X0.325 Y-0.917 Z5.459 I-1.92 J2.211
N345 X-3.929 Y-3.227 Z5.257 I-1.343 J-2.598
N350 X-0.214 Y-6.322 Z5.054 I2.907 J-0.287
N355 X1.286 Y-1.732 Z4.851 I-0.807 J2.804
N360 X-3.528 Y-2.035 Z4.649 I-2.304 J-1.784
N365 X-1.469 Y-6.39 Z4.446 I2.506 J-1.479
N370 X1.812 Y-2.871 Z4.243 I0.447 J2.872
N375 X-2.665 Y-1.125 Z4.041 I-2.831 J-0.645
N380 X-2.632 Y-5.925 Z3.838 I1.644 J-2.389
N385 X1.81 Y-4.122 Z3.635 I1.609 J2.408
N390 X-1.503 Y-0.666 Z3.432 I-2.829 J0.605
N395 X-3.487 Y-5.016 Z3.23 I0.483 J-2.848
N400 X1.283 Y-5.251 Z3.027 I2.465 J1.5
N405 X-0.26 Y-0.738 Z2.824 I-2.303 J1.733
N410 X-3.879 Y-3.837 Z2.622 I-0.758 J-2.777
N415 X0.333 Y-6.051 Z2.419 I2.857 J0.322
N420 X0.832 Y-1.324 Z2.216 I-1.353 J2.532
N425 X-3.738 Y-2.606 Z2.014 I-1.85 J-2.191
N430 X-0.861 Y-6.374 Z1.811 I2.717 J-0.908
N435 X1.573 Y-2.313 Z1.608 I-0.16 J2.856
N440 X-3.094 Y-1.553 Z1.405 I-2.591 J-1.203
N445 X-2.076 Y-6.165 Z1.203 I2.074 J-1.961
N450 X1.828 Y-3.517 Z1. I1.054 J2.648
N455 X-3.872 I-2.85 J0.
N460 X1.828 I2.85 J0.
N465 G1 X1.836 Y-2.988 F2000.
N470 X1.834 Y-2.838
N475 X1.816 Y-2.69
N480 X1.785 Y-2.543
N485 X1.742 Y-2.399
N490 X1.69 Y-2.258
N495 X1.63 Y-2.121
N500 X1.561 Y-1.988
N505 X1.484 Y-1.859
N510 X1.401 Y-1.734
N515 X1.311 Y-1.614
N520 X1.215 Y-1.499
N525 X1.113 Y-1.389
N530 X1.005 Y-1.285
N535 X0.892 Y-1.186
N540 X0.774 Y-1.093
N545 X0.652 Y-1.006
N550 X0.525 Y-0.926
N555 X0.395 Y-0.852
N560 X0.261 Y-0.785
N565 X0.123 Y-0.724
N570 X-0.017 Y-0.67
N575 X-0.159 Y-0.624
N580 X-0.304 Y-0.584
N585 X-0.45 Y-0.552
N590 X-0.598 Y-0.528
N595 X-0.747 Y-0.51
N600 X-0.897 Y-0.5
N605 X-1.047 Y-0.498
N610 X-1.197 Y-0.503
N615 X-1.346 Y-0.515
N620 X-1.495 Y-0.535
N625 X-1.643 Y-0.562
N630 X-1.789 Y-0.596
N635 X-1.933 Y-0.638
N640 X-2.075 Y-0.687
N645 X-2.214 Y-0.742
N650 X-2.35 Y-0.805
N655 X-2.483 Y-0.874
N660 X-2.613 Y-0.95
N665 X-2.738 Y-1.032
N670 X-2.859 Y-1.121
N675 X-2.976 Y-1.215
N680 X-3.088 Y-1.315
N685 X-3.195 Y-1.42
N690 X-3.296 Y-1.53
N695 X-3.392 Y-1.646
N700 X-3.482 Y-1.766
N705 X-3.566 Y-1.89
N710 X-3.644 Y-2.018
N715 X-3.715 Y-2.151
N720 X-3.78 Y-2.286
N725 X-3.837 Y-2.424
N730 X-3.888 Y-2.566
N735 X-3.932 Y-2.709
N740 X-3.968 Y-2.854
N745 X-3.998 Y-3.002
N750 X-4.02 Y-3.15
N755 X-4.034 Y-3.299
N760 X-4.041 Y-3.449
N765 Y-3.599
N770 X-4.033 Y-3.749
N775 X-4.018 Y-3.898
N780 X-3.995 Y-4.046
N785 X-3.965 Y-4.193
N790 X-3.928 Y-4.339
N795 X-3.884 Y-4.482
N800 X-3.832 Y-4.623
N805 X-3.774 Y-4.761
N810 X-3.709 Y-4.896
N815 X-3.637 Y-5.028
N820 X-3.559 Y-5.156
N825 X-3.474 Y-5.28
N830 X-3.384 Y-5.399
N835 X-3.287 Y-5.514
N840 X-3.185 Y-5.624
N845 X-3.078 Y-5.729
N850 X-2.966 Y-5.828
N855 X-2.848 Y-5.922
N860 X-2.727 Y-6.01
N865 X-2.601 Y-6.091
N870 X-2.471 Y-6.167
N875 X-2.338 Y-6.235
N880 X-2.201 Y-6.297
N885 X-2.062 Y-6.352
N890 X-1.92 Y-6.401
N895 X-1.775 Y-6.442
N900 X-1.629 Y-6.475
N905 X-1.481 Y-6.502
N910 X-1.333 Y-6.521
N915 X-1.183 Y-6.533
N920 X-1.033 Y-6.537
N925 X-0.883 Y-6.534
N930 X-0.734 Y-6.523
N935 X-0.585 Y-6.505
N940 X-0.437 Y-6.48
N945 X-0.29 Y-6.447
N950 X-0.146 Y-6.407
N955 X-0.003 Y-6.36
N960 X0.136 Y-6.306
N965 X0.274 Y-6.245
N970 X0.407 Y-6.177
N975 X0.538 Y-6.103
N980 X0.664 Y-6.022
N985 X0.786 Y-5.935
N990 X0.904 Y-5.843
N995 X1.017 Y-5.744
N1000 X1.125 Y-5.64
N1005 X1.228 Y-5.531
N1010 X1.325 Y-5.417
N1015 X1.417 Y-5.298
N1020 X1.502 Y-5.174
N1025 X1.581 Y-5.047
N1030 X1.654 Y-4.916
N1035 X1.72 Y-4.781
N1040 X1.78 Y-4.643
N1045 X1.832 Y-4.503
N1050 X1.878 Y-4.36
N1055 X1.916 Y-4.215
N1060 X1.947 Y-4.068
N1065 X1.973 Y-3.92
N1070 X1.995 Y-3.772
N1075 X2.013 Y-3.623
N1080 X2.027 Y-3.474
N1085 X2.035 Y-3.324
N1090 X2.036 Y-3.174
N1095 X2.03 Y-3.024
N1100 X2.016 Y-2.875
N1105 X1.993 Y-2.726
N1110 X1.962 Y-2.58
N1115 X1.923 Y-2.435
N1120 X1.876 Y-2.293
N1125 X1.821 Y-2.153
N1130 X1.758 Y-2.017
N1135 X1.688 Y-1.884
N1140 X1.612 Y-1.755
N1145 X1.528 Y-1.63
N1150 X1.439 Y-1.51
N1155 X1.343 Y-1.394
N1160 X1.242 Y-1.283
N1165 X1.136 Y-1.178
N1170 X1.024 Y-1.077
N1175 X0.908 Y-0.983
N1180 X0.787 Y-0.894
N1185 X0.662 Y-0.811
N1190 X0.533 Y-0.734
N1195 X0.401 Y-0.663
N1200 X0.266 Y-0.599
N1205 X0.127 Y-0.541
N1210 X-0.014 Y-0.49
N1215 X-0.157 Y-0.445
N1220 X-0.302 Y-0.408
N1225 X-0.449 Y-0.377
N1230 X-0.597 Y-0.353
N1235 X-0.746 Y-0.337
N1240 X-0.896 Y-0.327
N1245 X-1.046 Y-0.325
N1250 X-1.196 Y-0.33
N1255 X-1.345 Y-0.341
N1260 X-1.494 Y-0.36
N1265 X-1.642 Y-0.386
N1270 X-1.788 Y-0.418
N1275 X-1.933 Y-0.458
N1280 X-2.076 Y-0.504
N1285 X-2.216 Y-0.557
N1290 X-2.354 Y-0.616
N1295 X-2.489 Y-0.682
N1300 X-2.621 Y-0.753
N1305 X-2.749 Y-0.832
N1310 X-2.873 Y-0.916
N1315 X-2.993 Y-1.005
N1320 X-3.109 Y-1.101
N1325 X-3.22 Y-1.201
N1330 X-3.326 Y-1.307
N1335 X-3.428 Y-1.418
N1340 X-3.524 Y-1.533
N1345 X-3.614 Y-1.653
N1350 X-3.699 Y-1.777
N1355 X-3.777 Y-1.904
N1360 X-3.85 Y-2.036
N1365 X-3.916 Y-2.17
N1370 X-3.976 Y-2.308
N1375 X-4.03 Y-2.448
N1380 X-4.077 Y-2.59
N1385 X-4.117 Y-2.735
N1390 X-4.151 Y-2.881
N1395 X-4.177 Y-3.028
N1400 X-4.197 Y-3.177
N1405 X-4.209 Y-3.327
N1410 X-4.215 Y-3.477
N1415 X-4.213 Y-3.627
N1420 X-4.204 Y-3.776
N1425 X-4.189 Y-3.925
N1430 X-4.166 Y-4.074
N1435 X-4.136 Y-4.221
N1440 X-4.1 Y-4.366
N1445 X-4.056 Y-4.51
N1450 X-4.006 Y-4.651
N1455 X-3.95 Y-4.79
N1460 X-3.887 Y-4.926
N1465 X-3.817 Y-5.059
N1470 X-3.742 Y-5.189
N1475 X-3.66 Y-5.315
N1480 X-3.573 Y-5.437
N1485 X-3.48 Y-5.555
N1490 X-3.382 Y-5.668
N1495 X-3.278 Y-5.776
N1500 X-3.17 Y-5.88
N1505 X-3.056 Y-5.978
N1510 X-2.939 Y-6.071
N1515 X-2.816 Y-6.158
N1520 X-2.69 Y-6.239
N1525 X-2.561 Y-6.315
N1530 X-2.428 Y-6.384
N1535 X-2.291 Y-6.447
N1540 X-2.152 Y-6.503
N1545 X-2.011 Y-6.553
N1550 X-1.867 Y-6.596
N1555 X-1.722 Y-6.632
N1560 X-1.574 Y-6.661
N1565 X-1.426 Y-6.684
N1570 X-1.277 Y-6.7
N1575 X-1.127 Y-6.708
N1580 X-0.977 Y-6.71
N1585 X-0.827 Y-6.704
N1590 X-0.678 Y-6.691
N1595 X-0.529 Y-6.672
N1600 X-0.382 Y-6.645
N1605 X-0.235 Y-6.612
N1610 X-0.091 Y-6.571
N1615 X0.051 Y-6.524
N1620 X0.192 Y-6.47
N1625 X0.329 Y-6.41
N1630 X0.463 Y-6.343
N1635 X0.594 Y-6.27
N1640 X0.722 Y-6.191
N1645 X0.845 Y-6.106
N1650 X0.965 Y-6.016
N1655 X1.08 Y-5.92
N1660 X1.191 Y-5.818
N1665 X1.297 Y-5.712
N1670 X1.397 Y-5.601
N1675 X1.492 Y-5.485
N1680 X1.582 Y-5.364
N1685 X1.666 Y-5.24
N1690 X1.744 Y-5.112
N1695 X1.816 Y-4.98
N1700 X1.881 Y-4.845
N1705 X1.94 Y-4.707
N1710 X1.993 Y-4.567
N1715 X2.041 Y-4.425
N1720 X2.082 Y-4.281
N1725 X2.119 Y-4.135
N1730 X2.151 Y-3.989
N1735 X2.176 Y-3.841
N1740 X2.197 Y-3.692
N1745 X2.211 Y-3.543
N1750 X2.218 Y-3.393
N1755 X2.219 Y-3.243
N1760 X2.214 Y-3.093
N1765 X2.201 Y-2.944
N1770 X2.181 Y-2.795
N1775 X2.154 Y-2.648
N1780 X2.119 Y-2.502
N1785 X2.077 Y-2.358
N1790 X2.028 Y-2.216
N1795 X1.972 Y-2.077
N1800 X1.909 Y-1.941
N1805 X1.839 Y-1.808
N1810 X1.763 Y-1.678
N1815 X1.681 Y-1.553
N1820 X1.593 Y-1.431
N1825 X1.5 Y-1.314
N1830 X1.4 Y-1.202
N1835 X1.296 Y-1.094
N1840 X1.187 Y-0.991
N1845 X1.073 Y-0.893
N1850 X0.955 Y-0.801
N1855 X0.832 Y-0.714
N1860 X0.706 Y-0.633
N1865 X0.576 Y-0.558
N1870 X0.443 Y-0.489
N1875 X0.307 Y-0.426
N1880 X0.168 Y-0.369
N1885 X0.027 Y-0.318
N1890 X-0.116 Y-0.274
N1895 X-0.261 Y-0.237
N1900 X-0.408 Y-0.206
N1905 X-0.556 Y-0.182
N1910 X-0.705 Y-0.164
N1915 X-0.855 Y-0.153
N1920 X-1.005 Y-0.149
N1925 X-1.155 Y-0.152
N1930 X-1.304 Y-0.161
N1935 X-1.454 Y-0.177
N1940 X-1.602 Y-0.199
N1945 X-1.749 Y-0.228
N1950 X-1.895 Y-0.264
N1955 X-2.039 Y-0.306
N1960 X-2.181 Y-0.354
N1965 X-2.321 Y-0.408
N1970 X-2.458 Y-0.469
N1975 X-2.592 Y-0.536
N1980 X-2.723 Y-0.609
N1985 X-2.851 Y-0.687
N1990 X-2.975 Y-0.772
N1995 X-3.095 Y-0.861
N2000 X-3.212 Y-0.956
N2005 X-3.323 Y-1.056
N2010 X-3.43 Y-1.161
N2015 X-3.533 Y-1.271
N2020 X-3.63 Y-1.385
N2025 X-3.723 Y-1.503
N2030 X-3.809 Y-1.625
N2035 X-3.891 Y-1.751
N2040 X-3.967 Y-1.881
N2045 X-4.037 Y-2.013
N2050 X-4.101 Y-2.149
N2055 X-4.159 Y-2.287
N2060 X-4.21 Y-2.428
N2065 X-4.256 Y-2.571
N2070 X-4.295 Y-2.716
N2075 X-4.327 Y-2.862
N2080 X-4.353 Y-3.01
N2085 X-4.373 Y-3.159
N2090 X-4.385 Y-3.308
N2095 X-4.391 Y-3.458
N2100 X-4.39 Y-3.608
N2105 X-4.383 Y-3.758
N2110 X-4.368 Y-3.907
N2115 X-4.348 Y-4.056
N2120 X-4.32 Y-4.203
N2125 X-4.286 Y-4.35
N2130 X-4.246 Y-4.494
N2135 X-4.199 Y-4.637
N2140 X-4.146 Y-4.777
N2145 X-4.087 Y-4.915
N2150 X-4.022 Y-5.05
N2155 X-3.951 Y-5.182
N2160 X-3.874 Y-5.311
N2165 X-3.792 Y-5.436
N2170 X-3.704 Y-5.557
N2175 X-3.61 Y-5.675
N2180 X-3.512 Y-5.788
N2185 X-3.408 Y-5.896
N2190 X-3.3 Y-6.
N2195 X-3.187 Y-6.099
N2200 X-3.07 Y-6.193
N2205 X-2.949 Y-6.281
N2210 X-2.824 Y-6.364
N2215 X-2.695 Y-6.441
N2220 X-2.563 Y-6.513
N2225 X-2.428 Y-6.578
N2230 X-2.291 Y-6.638
N2235 X-2.15 Y-6.691
N2240 X-2.008 Y-6.739
N2245 X-1.864 Y-6.779
N2250 X-1.718 Y-6.814
N2255 X-1.57 Y-6.841
N2260 X-1.422 Y-6.863
N2265 X-1.272 Y-6.877
N2270 X-1.123 Y-6.885
N2275 X-0.973 Y-6.886
N2280 X-0.823 Y-6.881
N2285 X-0.673 Y-6.868
N2290 X-0.524 Y-6.849
N2295 X-0.377 Y-6.824
N2300 X-0.23 Y-6.792
N2305 X-0.085 Y-6.753
N2310 X0.058 Y-6.708
N2315 X0.199 Y-6.657
N2320 X0.337 Y-6.599
N2325 X0.473 Y-6.536
N2330 X0.606 Y-6.466
N2335 X0.736 Y-6.391
N2340 X0.862 Y-6.31
N2345 X0.985 Y-6.223
N2350 X1.103 Y-6.131
N2355 X1.217 Y-6.034
N2360 X1.327 Y-5.932
N2365 X1.433 Y-5.825
N2370 X1.533 Y-5.714
N2375 X1.628 Y-5.598
N2380 X1.718 Y-5.478
N2385 X1.802 Y-5.354
N2390 X1.881 Y-5.226
N2395 X1.955 Y-5.095
N2400 X2.022 Y-4.962
N2405 X2.085 Y-4.825
N2410 X2.142 Y-4.686
N2415 X2.193 Y-4.546
N2420 X2.239 Y-4.403
N2425 X2.28 Y-4.258
N2430 X2.315 Y-4.113
N2435 X2.344 Y-3.965
N2440 X2.368 Y-3.817
N2445 X2.385 Y-3.668
N2450 X2.397 Y-3.519
N2455 X2.402 Y-3.369
N2460 X2.401 Y-3.219
N2465 X2.393 Y-3.069
N2470 X2.378 Y-2.92
N2475 X2.357 Y-2.771
N2480 X2.329 Y-2.624
N2485 X2.294 Y-2.478
N2490 X2.253 Y-2.334
N2495 X2.205 Y-2.192
N2500 X2.15 Y-2.052
N2505 X2.09 Y-1.915
N2510 X2.023 Y-1.781
N2515 X1.95 Y-1.65
N2520 X1.871 Y-1.522
N2525 X1.786 Y-1.398
N2530 X1.696 Y-1.278
N2535 X1.601 Y-1.162
N2540 X1.5 Y-1.051
N2545 X1.395 Y-0.944
N2550 X1.285 Y-0.842
N2555 X1.171 Y-0.745
N2560 X1.052 Y-0.653
N2565 X0.93 Y-0.566
N2570 X0.804 Y-0.485
N2575 X0.675 Y-0.409
N2580 X0.542 Y-0.339
N2585 X0.406 Y-0.275
N2590 X0.268 Y-0.217
N2595 X0.127 Y-0.164
N2600 X-0.015 Y-0.118
N2605 X-0.16 Y-0.078
N2610 X-0.306 Y-0.044
N2615 X-0.453 Y-0.017
N2620 X-0.602 Y0.004
N2625 X-0.751 Y0.019
N2630 X-0.901 Y0.028
N2635 X-1.051 Y0.03
N2640 X-1.201 Y0.026
N2645 X-1.35 Y0.015
N2650 X-1.5 Y-0.001
N2655 X-1.648 Y-0.025
N2660 X-1.795 Y-0.054
N2665 X-1.941 Y-0.089
N2670 X-2.085 Y-0.131
N2675 X-2.227 Y-0.179
N2680 X-2.367 Y-0.233
N2685 X-2.504 Y-0.293
N2690 X-2.639 Y-0.358
N2695 X-2.771 Y-0.429
N2700 X-2.9 Y-0.506
N2705 X-3.026 Y-0.588
N2710 X-3.148 Y-0.675
N2715 X-3.266 Y-0.768
N2720 X-3.38 Y-0.865
N2725 X-3.49 Y-0.967
N2730 X-3.596 Y-1.074
N2735 X-3.697 Y-1.185
N2740 X-3.793 Y-1.3
N2745 X-3.884 Y-1.419
N2750 X-3.97 Y-1.542
N2755 X-4.051 Y-1.668
N2760 X-4.127 Y-1.797
N2765 X-4.197 Y-1.93
N2770 X-4.261 Y-2.066
N2775 X-4.319 Y-2.204
N2780 X-4.372 Y-2.344
N2785 X-4.419 Y-2.487
N2790 X-4.459 Y-2.631
N2795 X-4.493 Y-2.777
N2800 X-4.521 Y-2.925
N2805 X-4.543 Y-3.073
N2810 X-4.559 Y-3.222
N2815 X-4.568 Y-3.372
N2820 X-4.571 Y-3.522
N2825 X-4.568 Y-3.672
N2830 X-4.558 Y-3.822
N2835 X-4.542 Y-3.971
N2840 X-4.52 Y-4.119
N2845 X-4.491 Y-4.266
N2850 X-4.456 Y-4.412
N2855 X-4.416 Y-4.557
N2860 X-4.369 Y-4.699
N2865 X-4.316 Y-4.839
N2870 X-4.257 Y-4.977
N2875 X-4.192 Y-5.113
N2880 X-4.122 Y-5.245
N2885 X-4.046 Y-5.375
N2890 X-3.965 Y-5.501
N2895 X-3.879 Y-5.623
N2900 X-3.787 Y-5.742
N2905 X-3.691 Y-5.857
N2910 X-3.589 Y-5.968
N2915 X-3.483 Y-6.074
N2920 X-3.373 Y-6.176
N2925 X-3.259 Y-6.273
N2930 X-3.14 Y-6.365
N2935 X-3.018 Y-6.452
N2940 X-2.892 Y-6.533
N2945 X-2.763 Y-6.61
N2950 X-2.631 Y-6.681
N2955 X-2.496 Y-6.746
N2960 X-2.358 Y-6.805
N2965 X-2.218 Y-6.859
N2970 X-2.076 Y-6.906
N2975 X-1.932 Y-6.948
N2980 X-1.786 Y-6.983
N2985 X-1.639 Y-7.012
N2990 X-1.49 Y-7.035
N2995 X-1.341 Y-7.052
N3000 X-1.192 Y-7.062
N3005 X-1.042 Y-7.066
N3010 X-0.892 Y-7.064
N3015 X-0.742 Y-7.055
N3020 X-0.593 Y-7.04
N3025 X-0.444 Y-7.019
N3030 X-0.297 Y-6.991
N3035 X-0.151 Y-6.957
N3040 X-0.006 Y-6.917
N3045 X0.137 Y-6.872
N3050 X0.277 Y-6.82
N3055 X0.416 Y-6.762
N3060 X0.552 Y-6.698
N3065 X0.685 Y-6.629
N3070 X0.815 Y-6.554
N3075 X0.941 Y-6.474
N3080 X1.065 Y-6.388
N3085 X1.184 Y-6.297
N3090 X1.299 Y-6.202
N3095 X1.411 Y-6.101
N3100 X1.518 Y-5.996
N3105 X1.62 Y-5.886
N3110 X1.718 Y-5.773
N3115 X1.811 Y-5.655
N3120 X1.899 Y-5.533
N3125 X1.982 Y-5.408
N3130 X2.06 Y-5.28
N3135 X2.132 Y-5.149
N3140 X2.2 Y-5.015
N3145 X2.262 Y-4.879
N3150 X2.32 Y-4.74
N3155 X2.372 Y-4.599
N3160 X2.418 Y-4.457
N3165 X2.459 Y-4.312
N3170 X2.495 Y-4.167
N3175 X2.525 Y-4.02
N3180 X2.549 Y-3.872
N3185 X2.567 Y-3.723
N3190 X2.58 Y-3.573
N3195 X2.586 Y-3.423
N3200 Y-3.273
N3205 X2.58 Y-3.124
N3210 X2.567 Y-2.974
N3215 X2.549 Y-2.825
N3220 X2.524 Y-2.677
N3225 X2.493 Y-2.531
N3230 X2.455 Y-2.385
N3235 X2.412 Y-2.242
N3240 X2.362 Y-2.1
N3245 X2.307 Y-1.961
N3250 X2.245 Y-1.824
N3255 X2.177 Y-1.69
N3260 X2.104 Y-1.559
N3265 X2.026 Y-1.432
N3270 X1.942 Y-1.307
N3275 X1.852 Y-1.187
N3280 X1.758 Y-1.07
N3285 X1.659 Y-0.958
N3290 X1.555 Y-0.849
N3295 X1.447 Y-0.746
N3300 X1.334 Y-0.646
N3305 X1.218 Y-0.552
N3310 X1.097 Y-0.463
N3315 X0.973 Y-0.378
N3320 X0.846 Y-0.299
N3325 X0.715 Y-0.225
N3330 X0.582 Y-0.157
N3335 X0.445 Y-0.094
N3340 X0.307 Y-0.037
N3345 X0.166 Y0.015
N3350 X0.023 Y0.06
N3355 X-0.122 Y0.1
N3360 X-0.268 Y0.134
N3365 X-0.415 Y0.162
N3370 X-0.564 Y0.184
N3375 X-0.713 Y0.2
N3380 X-0.862 Y0.209
N3385 X-1.012 Y0.213
N3390 X-1.162 Y0.211
N3395 X-1.312 Y0.202
N3400 X-1.461 Y0.188
N3405 X-1.61 Y0.167
N3410 X-1.758 Y0.141
N3415 X-1.904 Y0.108
N3420 X-2.049 Y0.07
N3425 X-2.193 Y0.026
N3430 X-2.334 Y-0.024
N3435 X-2.473 Y-0.079
N3440 X-2.61 Y-0.14
N3445 X-2.745 Y-0.207
N3450 X-2.877 Y-0.278
N3455 X-3.005 Y-0.356
N3460 X-3.131 Y-0.438
N3465 X-3.253 Y-0.525
N3470 X-3.371 Y-0.617
N3475 X-3.486 Y-0.714
N3480 X-3.597 Y-0.815
N3485 X-3.703 Y-0.921
N3490 X-3.805 Y-1.03
N3495 X-3.903 Y-1.144
N3500 X-3.996 Y-1.262
N3505 X-4.084 Y-1.383
N3510 X-4.167 Y-1.508
N3515 X-4.246 Y-1.636
N3520 X-4.319 Y-1.767
N3525 X-4.386 Y-1.901
N3530 X-4.449 Y-2.037
N3535 X-4.505 Y-2.176
N3540 X-4.556 Y-2.317
N3545 X-4.602 Y-2.46
N3550 X-4.641 Y-2.605
N3555 X-4.675 Y-2.751
N3560 X-4.703 Y-2.899
N3565 X-4.725 Y-3.047
N3570 X-4.741 Y-3.196
N3575 X-4.751 Y-3.346
N3580 X-4.754 Y-3.496
N3585 X-4.752 Y-3.646
N3590 X-4.744 Y-3.795
N3595 X-4.73 Y-3.945
N3600 X-4.71 Y-4.093
N3605 X-4.684 Y-4.241
N3610 X-4.651 Y-4.388
N3615 X-4.614 Y-4.533
N3620 X-4.57 Y-4.676
N3625 X-4.52 Y-4.818
N3630 X-4.465 Y-4.957
N3635 X-4.405 Y-5.095
N3640 X-4.339 Y-5.229
N3645 X-4.267 Y-5.361
N3650 X-4.19 Y-5.49
N3655 X-4.109 Y-5.616
N3660 X-4.022 Y-5.738
N3665 X-3.93 Y-5.857
N3670 X-3.834 Y-5.972
N3675 X-3.733 Y-6.083
N3680 X-3.628 Y-6.19
N3685 X-3.518 Y-6.292
N3690 X-3.405 Y-6.39
N3695 X-3.287 Y-6.484
N3700 X-3.166 Y-6.572
N3705 X-3.042 Y-6.656
N3710 X-2.914 Y-6.734
N3715 X-2.783 Y-6.808
N3720 X-2.649 Y-6.876
N3725 X-2.513 Y-6.939
N3730 X-2.374 Y-6.996
N3735 X-2.234 Y-7.047
N3740 X-2.091 Y-7.093
N3745 X-1.946 Y-7.133
N3750 X-1.8 Y-7.167
N3755 X-1.653 Y-7.196
N3760 X-1.505 Y-7.218
N3765 X-1.356 Y-7.235
N3770 X-1.206 Y-7.245
N3775 X-1.056 Y-7.249
N3780 X-0.906 Y-7.248
N3785 X-0.756 Y-7.24
N3790 X-0.607 Y-7.226
N3795 X-0.458 Y-7.207
N3800 X-0.31 Y-7.181
N3805 X-0.164 Y-7.149
N3810 X-0.018 Y-7.112
N3815 X0.125 Y-7.069
N3820 X0.267 Y-7.02
N3825 X0.407 Y-6.965
N3830 X0.544 Y-6.905
N3835 X0.679 Y-6.839
N3840 X0.811 Y-6.768
N3845 X0.94 Y-6.692
N3850 X1.066 Y-6.61
N3855 X1.189 Y-6.524
N3860 X1.308 Y-6.433
N3865 X1.423 Y-6.337
N3870 X1.535 Y-6.236
N3875 X1.642 Y-6.132
N3880 X1.745 Y-6.022
N3885 X1.843 Y-5.909
N3890 X1.938 Y-5.793
N3895 X2.027 Y-5.672
N3900 X2.112 Y-5.549
N3905 X2.192 Y-5.422
N3910 X2.267 Y-5.292
N3915 X2.337 Y-5.159
N3920 X2.403 Y-5.024
N3925 X2.463 Y-4.887
N3930 X2.518 Y-4.748
N3935 X2.568 Y-4.606
N3940 X2.613 Y-4.463
N3945 X2.653 Y-4.318
N3950 X2.687 Y-4.172
N3955 X2.715 Y-4.025
N3960 X2.738 Y-3.877
N3965 X2.755 Y-3.728
N3970 X2.767 Y-3.578
N3975 X2.773 Y-3.428
N3980 X2.772 Y-3.278
N3985 X2.766 Y-3.128
N3990 X2.754 Y-2.979
N3995 X2.736 Y-2.83
N4000 X2.713 Y-2.682
N4005 X2.683 Y-2.535
N4010 X2.647 Y-2.389
N4015 X2.605 Y-2.245
N4020 X2.558 Y-2.103
N4025 X2.505 Y-1.962
N4030 X2.446 Y-1.824
N4035 X2.382 Y-1.689
N4040 X2.312 Y-1.556
N4045 X2.237 Y-1.426
N4050 X2.157 Y-1.299
N4055 X2.072 Y-1.176
N4060 X1.982 Y-1.056
N4065 X1.887 Y-0.94
N4070 X1.788 Y-0.827
N4075 X1.684 Y-0.719
N4080 X1.576 Y-0.615
N4085 X1.464 Y-0.515
N4090 X1.348 Y-0.42
N4095 X1.228 Y-0.33
N4100 X1.105 Y-0.244
N4105 X0.978 Y-0.164
N4110 X0.849 Y-0.088
N4115 X0.716 Y-0.018
N4120 X0.581 Y0.047
N4125 X0.444 Y0.107
N4130 X0.304 Y0.162
N4135 X0.162 Y0.211
N4140 X0.019 Y0.254
N4145 X-0.127 Y0.292
N4150 X-0.273 Y0.324
N4155 X-0.421 Y0.35
N4160 X-0.569 Y0.371
N4165 X-0.719 Y0.386
N4170 X-0.868 Y0.395
N4175 X-1.018 Y0.399
N4180 X-1.168 Y0.396
N4185 X-1.318 Y0.388
N4190 X-1.467 Y0.374
N4195 X-1.616 Y0.355
N4200 X-1.764 Y0.329
N4205 X-1.911 Y0.298
N4210 X-2.056 Y0.262
N4215 X-2.2 Y0.22
N4220 X-2.342 Y0.172
N4225 X-2.483 Y0.119
N4230 X-2.621 Y0.06
N4235 X-2.756 Y-0.004
N4240 X-2.89 Y-0.073
N4245 X-3.02 Y-0.147
N4250 X-3.148 Y-0.226
N4255 X-3.272 Y-0.309
N4260 X-3.393 Y-0.398
N4265 X-3.511 Y-0.491
N4270 X-3.625 Y-0.588
N4275 X-3.735 Y-0.69
N4280 X-3.842 Y-0.796
N4285 X-3.944 Y-0.906
N4290 X-4.042 Y-1.019
N4295 X-4.135 Y-1.137
N4300 X-4.224 Y-1.257
N4305 X-4.308 Y-1.382
N4310 X-4.387 Y-1.509
N4315 X-4.462 Y-1.639
N4320 X-4.531 Y-1.772
N4325 X-4.595 Y-1.908
N4330 X-4.654 Y-2.046
N4335 X-4.708 Y-2.186
N4340 X-4.756 Y-2.328
N4345 X-4.799 Y-2.472
N4350 X-4.836 Y-2.617
N4355 X-4.868 Y-2.764
N4360 X-4.894 Y-2.911
N4365 X-4.914 Y-3.06
N4370 X-4.929 Y-3.209
N4375 X-4.938 Y-3.359
N4380 X-4.941 Y-3.509
N4385 X-4.938 Y-3.659
N4390 X-4.93 Y-3.809
N4395 X-4.916 Y-3.958
N4400 X-4.896 Y-4.107
N4405 X-4.871 Y-4.254
N4410 X-4.84 Y-4.401
N4415 X-4.803 Y-4.547
N4420 X-4.761 Y-4.691
N4425 X-4.714 Y-4.833
N4430 X-4.661 Y-4.973
N4435 X-4.602 Y-5.111
N4440 X-4.538 Y-5.247
N4445 X-4.47 Y-5.38
N4450 X-4.396 Y-5.511
N4455 X-4.317 Y-5.639
N4460 X-4.233 Y-5.763
N4465 X-4.145 Y-5.884
N4470 X-4.052 Y-6.002
N4475 X-3.955 Y-6.116
N4480 X-3.853 Y-6.227
N4485 X-3.747 Y-6.333
N4490 X-3.638 Y-6.435
N4495 X-3.524 Y-6.533
N4500 X-3.407 Y-6.627
N4505 X-3.286 Y-6.716
N4510 X-3.162 Y-6.8
N4515 X-3.035 Y-6.88
N4520 X-2.905 Y-6.954
N4525 X-2.772 Y-7.024
N4530 X-2.636 Y-7.088
N4535 X-2.499 Y-7.147
N4540 X-2.359 Y-7.201
N4545 X-2.217 Y-7.25
N4550 X-2.073 Y-7.292
N4555 X-1.928 Y-7.33
N4560 X-1.781 Y-7.362
N4565 X-1.633 Y-7.388
N4570 X-1.485 Y-7.408
N4575 X-1.335 Y-7.423
N4580 X-1.186 Y-7.432
N4585 X-1.036 Y-7.436
N4590 X-0.886 Y-7.434
N4595 X-0.736 Y-7.426
N4600 X-0.587 Y-7.412
N4605 X-0.438 Y-7.392
N4610 X-0.29 Y-7.367
N4615 X-0.143 Y-7.336
N4620 X0.002 Y-7.3
N4625 X0.146 Y-7.258
N4630 X0.289 Y-7.21
N4635 X0.429 Y-7.158
N4640 X0.567 Y-7.099
N4645 X0.703 Y-7.036
N4650 X0.836 Y-6.967
N4655 X0.967 Y-6.893
N4660 X1.095 Y-6.815
N4665 X1.219 Y-6.731
N4670 X1.341 Y-6.643
N4675 X1.459 Y-6.551
N4680 X1.573 Y-6.453
N4685 X1.684 Y-6.352
N4690 X1.79 Y-6.247
N4695 X1.893 Y-6.137
N4700 X1.992 Y-6.024
N4705 X2.086 Y-5.908
N4710 X2.176 Y-5.788
N4715 X2.261 Y-5.664
N4720 X2.343 Y-5.538
N4725 X2.419 Y-5.409
N4730 X2.491 Y-5.277
N4735 X2.558 Y-5.143
N4740 X2.62 Y-5.007
N4745 X2.677 Y-4.868
N4750 X2.729 Y-4.727
N4755 X2.776 Y-4.585
N4760 X2.818 Y-4.441
N4765 X2.855 Y-4.295
N4770 X2.886 Y-4.149
N4775 X2.912 Y-4.001
N4780 X2.933 Y-3.852
N4785 X2.948 Y-3.703
N4790 X2.958 Y-3.554
N4795 X2.962 Y-3.404
N4800 X2.961 Y-3.254
N4805 X2.954 Y-3.104
N4810 X2.941 Y-2.954
N4815 X2.923 Y-2.805
N4820 X2.899 Y-2.657
N4825 X2.869 Y-2.51
N4830 X2.834 Y-2.364
N4835 X2.794 Y-2.22
N4840 X2.747 Y-2.077
N4845 X2.696 Y-1.937
N4850 X2.639 Y-1.798
N4855 X2.576 Y-1.661
N4860 X2.509 Y-1.527
N4865 X2.436 Y-1.396
N4870 X2.359 Y-1.268
N4875 X2.276 Y-1.142
N4880 X2.189 Y-1.02
N4885 X2.097 Y-0.902
N4890 X2.001 Y-0.786
N4895 X1.901 Y-0.675
N4900 X1.796 Y-0.568
N4905 X1.688 Y-0.464
N4910 X1.575 Y-0.365
N4915 X1.459 Y-0.27
N4920 X1.339 Y-0.18
N4925 X1.216 Y-0.094
N4930 X1.09 Y-0.012
N4935 X0.961 Y0.064
N4940 X0.829 Y0.135
N4945 X0.695 Y0.202
N4950 X0.558 Y0.263
N4955 X0.419 Y0.32
N4960 X0.278 Y0.371
N4965 X0.135 Y0.416
N4970 X-0.009 Y0.457
N4975 X-0.155 Y0.492
N4980 X-0.302 Y0.521
N4985 X-0.45 Y0.546
N4990 X-0.599 Y0.564
N4995 X-0.749 Y0.578
N5000 X-0.898 Y0.585
N5005 X-1.048 Y0.588
N5010 X-1.198 Y0.584
N5015 X-1.348 Y0.575
N5020 X-1.497 Y0.561
N5025 X-1.646 Y0.541
N5030 X-1.794 Y0.516
N5035 X-1.941 Y0.486
N5040 X-2.087 Y0.45
N5045 X-2.231 Y0.408
N5050 X-2.373 Y0.362
N5055 X-2.514 Y0.31
N5060 X-2.653 Y0.253
N5065 X-2.789 Y0.191
N5070 X-2.924 Y0.124
N5075 X-3.055 Y0.052
N5080 X-3.184 Y-0.024
N5085 X-3.31 Y-0.106
N5090 X-3.433 Y-0.191
N5095 X-3.553 Y-0.282
N5100 X-3.67 Y-0.376
N5105 X-3.783 Y-0.475
N5110 X-3.892 Y-0.578
N5115 X-3.997 Y-0.684
N5120 X-4.099 Y-0.795
N5125 X-4.196 Y-0.909
N5130 X-4.289 Y-1.027
N5135 X-4.378 Y-1.147
N5140 X-4.462 Y-1.272
N5145 X-4.542 Y-1.399
N5150 X-4.617 Y-1.528
N5155 X-4.688 Y-1.661
N5160 X-4.753 Y-1.796
N5165 X-4.813 Y-1.933
N5170 X-4.868 Y-2.073
N5175 X-4.919 Y-2.214
N5180 X-4.964 Y-2.357
N5185 X-5.003 Y-2.502
N5190 X-5.038 Y-2.648
N5195 X-5.067 Y-2.795
N5200 X-5.09 Y-2.943
N5205 X-5.108 Y-3.092
N5210 X-5.121 Y-3.242
N5215 X-5.128 Y-3.391
N5220 X-5.13 Y-3.541
N5225 X-5.127 Y-3.691
N5230 X-5.118 Y-3.841
N5235 X-5.103 Y-3.99
N5240 X-5.083 Y-4.139
N5245 X-5.058 Y-4.287
N5250 X-5.027 Y-4.434
N5255 X-4.991 Y-4.579
N5260 X-4.95 Y-4.723
N5265 X-4.903 Y-4.866
N5270 X-4.851 Y-5.007
N5275 X-4.794 Y-5.146
N5280 X-4.732 Y-5.282
N5285 X-4.665 Y-5.416
N5290 X-4.594 Y-5.548
N5295 X-4.517 Y-5.677
N5300 X-4.436 Y-5.803
N5305 X-4.35 Y-5.926
N5310 X-4.26 Y-6.046
N5315 X-4.165 Y-6.163
N5320 X-4.067 Y-6.276
N5325 X-3.964 Y-6.385
N5330 X-3.857 Y-6.49
N5335 X-3.747 Y-6.592
N5340 X-3.633 Y-6.689
N5345 X-3.515 Y-6.783
N5350 X-3.394 Y-6.871
N5355 X-3.27 Y-6.956
N5360 X-3.143 Y-7.036
N5365 X-3.014 Y-7.111
N5370 X-2.881 Y-7.181
N5375 X-2.746 Y-7.247
N5380 X-2.609 Y-7.307
N5385 X-2.47 Y-7.362
N5390 X-2.328 Y-7.413
N5395 X-2.185 Y-7.458
N5400 X-2.04 Y-7.497
N5405 X-1.894 Y-7.532
N5410 X-1.747 Y-7.561
N5415 X-1.599 Y-7.585
N5420 X-1.45 Y-7.603
N5425 X-1.301 Y-7.616
N5430 X-1.151 Y-7.623
N5435 X-1.001 Y-7.625
N5440 X-0.851 Y-7.622
N5445 X-0.701 Y-7.613
N5450 X-0.552 Y-7.598
N5455 X-0.403 Y-7.579
N5460 X-0.256 Y-7.553
N5465 X-0.109 Y-7.523
N5470 X0.037 Y-7.487
N5475 X0.181 Y-7.446
N5480 X0.324 Y-7.399
N5485 X0.465 Y-7.347
N5490 X0.603 Y-7.291
N5495 X0.74 Y-7.229
N5500 X0.874 Y-7.162
N5505 X1.006 Y-7.09
N5510 X1.135 Y-7.014
N5515 X1.261 Y-6.933
N5520 X1.385 Y-6.847
N5525 X1.504 Y-6.757
N5530 X1.621 Y-6.663
N5535 X1.734 Y-6.564
N5540 X1.844 Y-6.462
N5545 X1.95 Y-6.356
N5550 X2.052 Y-6.246
N5555 X2.15 Y-6.132
N5560 X2.244 Y-6.016
N5565 X2.334 Y-5.896
N5570 X2.42 Y-5.773
N5575 X2.501 Y-5.647
N5580 X2.578 Y-5.518
N5585 X2.651 Y-5.387
N5590 X2.719 Y-5.253
N5595 X2.782 Y-5.117
N5600 X2.841 Y-4.979
N5605 X2.895 Y-4.839
N5610 X2.944 Y-4.697
N5615 X2.987 Y-4.553
N5620 X3.026 Y-4.409
N5625 X3.06 Y-4.263
N5630 X3.089 Y-4.115
N5635 X3.112 Y-3.967
N5640 X3.131 Y-3.818
N5645 X3.144 Y-3.669
N5650 X3.152 Y-3.519
N5655 X3.154 Y-3.369
N5660 X3.151 Y-3.219
N5665 X3.143 Y-3.069
N5670 X3.13 Y-2.92
N5675 X3.111 Y-2.771
N5680 X3.086 Y-2.623
N5685 X3.057 Y-2.476
N5690 X3.022 Y-2.33
N5695 X2.982 Y-2.186
N5700 X2.936 Y-2.043
N5705 X2.886 Y-1.901
N5710 X2.83 Y-1.762
N5715 X2.769 Y-1.625
N5720 X2.704 Y-1.49
N5725 X2.633 Y-1.358
N5730 X2.557 Y-1.228
N5735 X2.477 Y-1.101
N5740 X2.393 Y-0.978
N5745 X2.304 Y-0.857
N5750 X2.21 Y-0.74
N5755 X2.113 Y-0.626
N5760 X2.011 Y-0.515
N5765 X1.905 Y-0.409
N5770 X1.796 Y-0.306
N5775 X1.683 Y-0.207
N5780 X1.567 Y-0.113
N5785 X1.447 Y-0.023
N5790 X1.324 Y0.063
N5795 X1.198 Y0.145
N5800 X1.069 Y0.222
N5805 X0.938 Y0.294
N5810 X0.804 Y0.361
N5815 X0.667 Y0.424
N5820 X0.529 Y0.482
N5825 X0.389 Y0.535
N5830 X0.246 Y0.582
N5835 X0.103 Y0.625
N5840 X-0.043 Y0.663
N5845 X-0.189 Y0.695
N5850 X-0.337 Y0.722
N5855 X-0.485 Y0.744
N5860 X-0.634 Y0.761
N5865 X-0.784 Y0.772
N5870 X-0.934 Y0.778
N5875 X-1.084 Y0.779
N5880 X-1.233 Y0.775
N5885 X-1.383 Y0.765
N5890 X-1.532 Y0.75
N5895 X-1.681 Y0.73
N5900 X-1.829 Y0.705
N5905 X-1.976 Y0.675
N5910 X-2.122 Y0.639
N5915 X-2.266 Y0.598
N5920 X-2.409 Y0.553
N5925 X-2.55 Y0.502
N5930 X-2.689 Y0.446
N5935 X-2.827 Y0.386
N5940 X-2.962 Y0.321
N5945 X-3.094 Y0.251
N5950 X-3.225 Y0.176
N5955 X-3.352 Y0.097
N5960 X-3.477 Y0.014
N5965 X-3.598 Y-0.074
N5970 X-3.717 Y-0.166
N5975 X-3.832 Y-0.262
N5980 X-3.944 Y-0.362
N5985 X-4.052 Y-0.466
N5990 X-4.157 Y-0.573
N5995 X-4.258 Y-0.684
N6000 X-4.355 Y-0.799
N6005 X-4.447 Y-0.917
N6010 X-4.536 Y-1.038
N6015 X-4.62 Y-1.162
N6020 X-4.7 Y-1.288
N6025 X-4.776 Y-1.418
N6030 X-4.847 Y-1.55
N6035 X-4.913 Y-1.685
N6040 X-4.975 Y-1.821
N6045 X-5.032 Y-1.96
N6050 X-5.084 Y-2.101
N6055 X-5.13 Y-2.243
N6060 X-5.172 Y-2.388
N6065 X-5.209 Y-2.533
N6070 X-5.241 Y-2.68
N6075 X-5.267 Y-2.827
N6080 X-5.289 Y-2.976
N6085 X-5.305 Y-3.125
N6090 X-5.316 Y-3.274
N6095 X-5.322 Y-3.424
N6100 X-5.323 Y-3.574
N6105 X-5.318 Y-3.724
N6110 X-5.308 Y-3.874
N6115 X-5.293 Y-4.023
N6120 X-5.273 Y-4.172
N6125 X-5.248 Y-4.32
N6130 X-5.217 Y-4.466
N6135 X-5.181 Y-4.612
N6140 X-5.141 Y-4.757
N6145 X-5.095 Y-4.899
N6150 X-5.045 Y-5.041
N6155 X-4.989 Y-5.18
N6160 X-4.929 Y-5.317
N6165 X-4.864 Y-5.452
N6170 X-4.794 Y-5.585
N6175 X-4.719 Y-5.715
N6180 X-4.64 Y-5.843
N6185 X-4.557 Y-5.968
N6190 X-4.469 Y-6.089
N6195 X-4.377 Y-6.208
N6200 X-4.282 Y-6.323
N6205 X-4.182 Y-6.435
N6210 X-4.078 Y-6.544
N6215 X-3.971 Y-6.648
N6220 X-3.86 Y-6.749
N6225 X-3.745 Y-6.846
N6230 X-3.627 Y-6.939
N6235 X-3.507 Y-7.028
N6240 X-3.383 Y-7.112
N6245 X-3.256 Y-7.193
N6250 X-3.126 Y-7.268
N6255 X-2.994 Y-7.34
N6260 X-2.86 Y-7.406
N6265 X-2.723 Y-7.468
N6270 X-2.584 Y-7.525
N6275 X-2.444 Y-7.577
N6280 X-2.301 Y-7.624
N6285 X-2.157 Y-7.666
N6290 X-2.012 Y-7.703
N6295 X-1.865 Y-7.735
N6300 X-1.718 Y-7.762
N6305 X-1.569 Y-7.783
N6310 X-1.42 Y-7.8
N6315 X-1.271 Y-7.811
N6320 X-1.121 Y-7.817
N6325 X-0.971 Y-7.818
N6330 X-0.821 Y-7.813
N6335 X-0.671 Y-7.804
N6340 X-0.522 Y-7.789
N6345 X-0.373 Y-7.769
N6350 X-0.225 Y-7.744
N6355 X-0.078 Y-7.713
N6360 X0.067 Y-7.678
N6365 X0.212 Y-7.638
N6370 X0.355 Y-7.592
N6375 X0.496 Y-7.542
N6380 X0.635 Y-7.486
N6385 X0.773 Y-7.426
N6390 X0.908 Y-7.361
N6395 X1.041 Y-7.292
N6400 X1.171 Y-7.217
N6405 X1.299 Y-7.139
N6410 X1.424 Y-7.056
N6415 X1.546 Y-6.968
N6420 X1.665 Y-6.877
N6425 X1.78 Y-6.781
N6430 X1.893 Y-6.682
N6435 X2.002 Y-6.579
N6440 X2.107 Y-6.472
N6445 X2.209 Y-6.362
N6450 X2.307 Y-6.248
N6455 X2.401 Y-6.131
N6460 X2.491 Y-6.011
N6465 X2.577 Y-5.888
N6470 X2.659 Y-5.763
N6475 X2.736 Y-5.634
N6480 X2.81 Y-5.504
N6485 X2.879 Y-5.371
N6490 X2.944 Y-5.235
N6495 X3.004 Y-5.098
N6500 X3.059 Y-4.958
N6505 X3.11 Y-4.817
N6510 X3.156 Y-4.674
N6515 X3.197 Y-4.53
N6520 X3.234 Y-4.385
N6525 X3.265 Y-4.238
N6530 X3.291 Y-4.09
N6535 X3.313 Y-3.942
N6540 X3.33 Y-3.793
N6545 X3.341 Y-3.643
N6550 X3.347 Y-3.493
N6555 X3.349 Y-3.343
N6560 X3.345 Y-3.193
N6565 X3.336 Y-3.044
N6570 X3.322 Y-2.894
N6575 X3.303 Y-2.746
N6580 X3.279 Y-2.598
N6585 X3.249 Y-2.45
N6590 X3.215 Y-2.304
N6595 X3.176 Y-2.16
N6600 X3.131 Y-2.016
N6605 X3.082 Y-1.875
N6610 X3.028 Y-1.735
N6615 X2.969 Y-1.597
N6620 X2.905 Y-1.461
N6625 X2.836 Y-1.328
N6630 X2.763 Y-1.197
N6635 X2.686 Y-1.069
N6640 X2.604 Y-0.943
N6645 X2.517 Y-0.82
N6650 X2.427 Y-0.701
N6655 X2.332 Y-0.584
N6660 X2.233 Y-0.471
N6665 X2.131 Y-0.362
N6670 X2.025 Y-0.256
N6675 X1.915 Y-0.154
N6680 X1.802 Y-0.055
N6685 X1.685 Y0.039
N6690 X1.566 Y0.13
N6695 X1.443 Y0.216
N6700 X1.317 Y0.298
N6705 X1.189 Y0.376
N6710 X1.058 Y0.449
N6715 X0.925 Y0.518
N6720 X0.789 Y0.582
N6725 X0.652 Y0.641
N6730 X0.512 Y0.696
N6735 X0.371 Y0.746
N6740 X0.227 Y0.791
N6745 X0.083 Y0.831
N6750 X-0.063 Y0.867
N6755 X-0.21 Y0.897
N6760 X-0.358 Y0.922
N6765 X-0.506 Y0.943
N6770 X-0.655 Y0.958
N6775 X-0.805 Y0.968
N6780 X-0.955 Y0.973
N6785 X-1.105
N6790 X-1.255 Y0.969
N6795 X-1.405 Y0.959
N6800 X-1.554 Y0.944
N6805 X-1.703 Y0.924
N6810 X-1.85 Y0.899
N6815 X-1.997 Y0.869
N6820 X-2.143 Y0.835
N6825 X-2.288 Y0.795
N6830 X-2.431 Y0.751
N6835 X-2.573 Y0.702
N6840 X-2.713 Y0.648
N6845 X-2.851 Y0.589
N6850 X-2.987 Y0.526
N6855 X-3.121 Y0.458
N6860 X-3.253 Y0.386
N6865 X-3.382 Y0.31
N6870 X-3.508 Y0.229
N6875 X-3.632 Y0.144
N6880 X-3.752 Y0.055
N6885 X-3.87 Y-0.038
N6890 X-3.984 Y-0.135
N6895 X-4.096 Y-0.236
N6900 X-4.203 Y-0.34
N6905 X-4.308 Y-0.448
N6910 X-4.408 Y-0.559
N6915 X-4.505 Y-0.674
N6920 X-4.598 Y-0.792
N6925 X-4.687 Y-0.913
N6930 X-4.772 Y-1.036
N6935 X-4.853 Y-1.163
N6940 X-4.929 Y-1.292
N6945 X-5.001 Y-1.423
N6950 X-5.069 Y-1.557
N6955 X-5.132 Y-1.693
N6960 X-5.191 Y-1.831
N6965 X-5.245 Y-1.971
N6970 X-5.294 Y-2.113
N6975 X-5.338 Y-2.256
N6980 X-5.378 Y-2.401
N6985 X-5.413 Y-2.547
N6990 X-5.443 Y-2.694
N6995 X-5.468 Y-2.841
N7000 X-5.488 Y-2.99
N7005 X-5.503 Y-3.139
N7010 X-5.513 Y-3.289
N7015 X-5.518 Y-3.439
N7020 Y-3.589
N7025 X-5.513 Y-3.739
N7030 X-5.503 Y-3.889
N7035 X-5.488 Y-4.038
N7040 X-5.468 Y-4.186
N7045 X-5.444 Y-4.334
N7050 X-5.414 Y-4.481
N7055 X-5.379 Y-4.627
N7060 X-5.34 Y-4.772
N7065 X-5.296 Y-4.916
N7070 X-5.247 Y-5.057
N7075 X-5.193 Y-5.197
N7080 X-5.135 Y-5.336
N7085 X-5.072 Y-5.472
N7090 X-5.005 Y-5.606
N7095 X-4.933 Y-5.737
N7100 X-4.856 Y-5.866
N7105 X-4.776 Y-5.993
N7110 X-4.691 Y-6.117
N7115 X-4.602 Y-6.238
N7120 X-4.509 Y-6.356
N7125 X-4.413 Y-6.47
N7130 X-4.312 Y-6.582
N7135 X-4.208 Y-6.69
N7140 X-4.101 Y-6.794
N7145 X-3.99 Y-6.895
N7150 X-3.875 Y-6.992
N7155 X-3.758 Y-7.085
N7160 X-3.637 Y-7.175
N7165 X-3.514 Y-7.26
N7170 X-3.388 Y-7.341
N7175 X-3.259 Y-7.418
N7180 X-3.128 Y-7.49
N7185 X-2.994 Y-7.559
N7190 X-2.858 Y-7.622
N7195 X-2.72 Y-7.681
N7200 X-2.58 Y-7.735
N7205 X-2.439 Y-7.785
N7210 X-2.296 Y-7.83
N7215 X-2.151 Y-7.87
N7220 X-2.005 Y-7.905
N7225 X-1.858 Y-7.935
N7230 X-1.71 Y-7.961
N7235 X-1.562 Y-7.981
N7240 X-1.413 Y-7.996
N7245 X-1.263 Y-8.007
N7250 X-1.113 Y-8.012
N7255 X-0.963 Y-8.013
N7260 X-0.813 Y-8.008
N7265 X-0.664 Y-7.999
N7270 X-0.514 Y-7.985
N7275 X-0.365 Y-7.965
N7280 X-0.217 Y-7.941
N7285 X-0.07 Y-7.912
N7290 X0.076 Y-7.878
N7295 X0.221 Y-7.839
N7300 X0.364 Y-7.795
N7305 X0.506 Y-7.746
N7310 X0.646 Y-7.693
N7315 X0.785 Y-7.635
N7320 X0.921 Y-7.573
N7325 X1.055 Y-7.506
N7330 X1.187 Y-7.434
N7335 X1.316 Y-7.358
N7340 X1.443 Y-7.278
N7345 X1.567 Y-7.194
N7350 X1.689 Y-7.106
N7355 X1.807 Y-7.014
N7360 X1.922 Y-6.918
N7365 X2.035 Y-6.818
N7370 X2.143 Y-6.715
N7375 X2.249 Y-6.608
N7380 X2.351 Y-6.498
N7385 X2.449 Y-6.385
N7390 X2.544 Y-6.268
N7395 X2.635 Y-6.149
N7400 X2.722 Y-6.027
N7405 X2.805 Y-5.902
N7410 X2.884 Y-5.775
N7415 X2.959 Y-5.645
N7420 X3.029 Y-5.512
N7425 X3.096 Y-5.378
N7430 X3.158 Y-5.241
N7435 X3.216 Y-5.103
N7440 X3.269 Y-4.963
N7445 X3.318 Y-4.821
N7450 X3.362 Y-4.678
N7455 X3.401 Y-4.533
N7460 X3.436 Y-4.387
N7465 X3.466 Y-4.24
N7470 X3.492 Y-4.092
N7475 X3.512 Y-3.943
N7480 X3.528 Y-3.794
N7485 X3.539 Y-3.645
N7490 X3.545 Y-3.495
N7495 X3.546 Y-3.345
N7500 X3.542 Y-3.195
N7505 X3.534 Y-3.045
N7510 X3.52 Y-2.896
N7515 X3.502 Y-2.747
N7520 X3.479 Y-2.599
N7525 X3.451 Y-2.451
N7530 X3.418 Y-2.305
N7535 X3.38 Y-2.16
N7540 X3.337 Y-2.016
N7545 X3.29 Y-1.874
N7550 X3.238 Y-1.733
N7555 X3.182 Y-1.594
N7560 X3.12 Y-1.457
N7565 X3.054 Y-1.322
N7570 X2.984 Y-1.19
N7575 X2.91 Y-1.06
N7580 X2.831 Y-0.932
N7585 X2.748 Y-0.807
N7590 X2.661 Y-0.685
N7595 X2.57 Y-0.566
N7600 X2.475 Y-0.45
N7605 X2.376 Y-0.337
N7610 X2.273 Y-0.227
N7615 X2.167 Y-0.121
N7620 X2.058 Y-0.019
N7625 X1.945 Y0.08
N7630 X1.829 Y0.176
N7635 X1.71 Y0.267
N7640 X1.588 Y0.354
N7645 X1.464 Y0.438
N7650 X1.336 Y0.517
N7655 X1.207 Y0.592
N7660 X1.074 Y0.663
N7665 X0.94 Y0.729
N7670 X0.803 Y0.791
N7675 X0.665 Y0.849
N7680 X0.524 Y0.901
N7685 X0.382 Y0.95
N7690 X0.239 Y0.993
N7695 X0.094 Y1.032
N7700 X-0.052 Y1.066
N7705 X-0.199 Y1.096
N7710 X-0.347 Y1.12
N7715 X-0.496 Y1.14
N7720 X-0.645 Y1.155
N7725 X-0.795 Y1.165
N7730 X-0.945 Y1.171
N7735 X-1.095
N7740 X-1.245 Y1.167
N7745 X-1.395 Y1.158
N7750 X-1.544 Y1.144
N7755 X-1.693 Y1.125
N7760 X-1.841 Y1.102
N7765 X-1.988 Y1.074
N7770 X-2.135 Y1.041
N7775 X-2.28 Y1.003
N7780 X-2.424 Y0.961
N7785 X-2.566 Y0.914
N7790 X-2.707 Y0.863
N7795 X-2.846 Y0.807
N7800 X-2.984 Y0.747
N7805 X-3.119 Y0.682
N7810 X-3.252 Y0.613
N7815 X-3.383 Y0.539
N7820 X-3.512 Y0.462
N7825 X-3.637 Y0.38
N7830 X-3.761 Y0.295
N7835 X-3.881 Y0.205
N7840 X-3.999 Y0.112
N7845 X-4.113 Y0.015
N7850 X-4.224 Y-0.085
N7855 X-4.332 Y-0.189
N7860 X-4.437 Y-0.297
N7865 X-4.538 Y-0.408
N7870 X-4.636 Y-0.521
N7875 X-4.73 Y-0.638
N7880 X-4.82 Y-0.758
N7885 X-4.906 Y-0.881
N7890 X-4.989 Y-1.006
N7895 X-5.067 Y-1.134
N7900 X-5.141 Y-1.265
N7905 X-5.211 Y-1.397
N7910 X-5.277 Y-1.532
N7915 X-5.338 Y-1.669
N7920 X-5.395 Y-1.808
N7925 X-5.447 Y-1.948
N7930 X-5.495 Y-2.091
N7935 X-5.538 Y-2.234
N7940 X-5.577 Y-2.379
N7945 X-5.611 Y-2.525
N7950 X-5.64 Y-2.672
N7955 X-5.665 Y-2.82
N7960 X-5.684 Y-2.969
N7965 X-5.7 Y-3.118
N7970 X-5.71 Y-3.268
N7975 X-5.715 Y-3.418
N7980 X-5.716 Y-3.568
N7985 X-5.712 Y-3.718
N7990 X-5.703 Y-3.868
N7995 X-5.69 Y-4.017
N8000 X-5.672 Y-4.166
N8005 X-5.649 Y-4.314
N8010 X-5.621 Y-4.461
N8015 X-5.589 Y-4.608
N8020 X-5.552 Y-4.753
N8025 X-5.51 Y-4.897
N8030 X-5.463 Y-5.04
N8035 X-5.413 Y-5.181
N8040 X-5.357 Y-5.32
N8045 X-5.297 Y-5.458
N8050 X-5.233 Y-5.594
N8055 X-5.164 Y-5.727
N8060 X-5.092 Y-5.858
N8065 X-5.015 Y-5.987
N8070 X-4.934 Y-6.113
N8075 X-4.849 Y-6.237
N8080 X-4.76 Y-6.358
N8085 X-4.667 Y-6.475
N8090 X-4.571 Y-6.59
N8095 X-4.471 Y-6.702
N8100 X-4.367 Y-6.811
N8105 X-4.26 Y-6.916
N8110 X-4.15 Y-7.018
N8115 X-4.037 Y-7.116
N8120 X-3.92 Y-7.21
N8125 X-3.801 Y-7.301
N8130 X-3.679 Y-7.388
N8135 X-3.554 Y-7.471
N8140 X-3.426 Y-7.55
N8145 X-3.296 Y-7.625
N8150 X-3.164 Y-7.695
N8155 X-3.029 Y-7.762
N8160 X-2.893 Y-7.824
N8165 X-2.754 Y-7.881
N8170 X-2.614 Y-7.934
N8175 X-2.472 Y-7.983
N8180 X-2.328 Y-8.027
N8185 X-2.184 Y-8.066
N8190 X-2.038 Y-8.101
N8195 X-1.891 Y-8.131
N8200 X-1.743 Y-8.156
N8205 X-1.594 Y-8.177
N8210 X-1.445 Y-8.192
N8215 X-1.295 Y-8.204
N8220 X-1.146 Y-8.21
N8225 X-0.996 Y-8.211
N8230 X-0.846 Y-8.208
N8235 X-0.696 Y-8.2
N8240 X-0.546 Y-8.188
N8245 X-0.397 Y-8.17
N8250 X-0.249 Y-8.148
N8255 X-0.102 Y-8.121
N8260 X0.045 Y-8.089
N8265 X0.191 Y-8.053
N8270 X0.335 Y-8.012
N8275 X0.478 Y-7.966
N8280 X0.619 Y-7.916
N8285 X0.759 Y-7.861
N8290 X0.897 Y-7.802
N8295 X1.033 Y-7.739
N8300 X1.166 Y-7.671
N8305 X1.298 Y-7.599
N8310 X1.427 Y-7.523
N8315 X1.554 Y-7.443
N8320 X1.678 Y-7.359
N8325 X1.8 Y-7.271
N8330 X1.919 Y-7.179
N8335 X2.034 Y-7.084
N8340 X2.147 Y-6.985
N8345 X2.257 Y-6.883
N8350 X2.363 Y-6.777
N8355 X2.466 Y-6.668
N8360 X2.566 Y-6.556
N8365 X2.662 Y-6.441
N8370 X2.755 Y-6.323
N8375 X2.844 Y-6.202
N8380 X2.929 Y-6.079
N8385 X3.01 Y-5.952
N8390 X3.088 Y-5.824
N8395 X3.161 Y-5.693
N8400 X3.23 Y-5.56
N8405 X3.296 Y-5.425
N8410 X3.357 Y-5.288
N8415 X3.413 Y-5.149
N8420 X3.466 Y-5.009
N8425 X3.514 Y-4.867
N8430 X3.557 Y-4.723
N8435 X3.597 Y-4.578
N8440 X3.631 Y-4.432
N8445 X3.661 Y-4.285
N8450 X3.687 Y-4.138
N8455 X3.708 Y-3.989
N8460 X3.725 Y-3.84
N8465 X3.736 Y-3.69
N8470 X3.743 Y-3.541
N8475 X3.746 Y-3.391
N8480 X3.744 Y-3.241
N8485 X3.737 Y-3.091
N8490 X3.726 Y-2.941
N8495 X3.709 Y-2.792
N8500 X3.688 Y-2.644
N8505 X3.663 Y-2.496
N8510 X3.633 Y-2.349
N8515 X3.598 Y-2.203
N8520 X3.558 Y-2.058
N8525 X3.514 Y-1.915
N8530 X3.465 Y-1.773
N8535 X3.412 Y-1.633
N8540 X3.355 Y-1.494
N8545 X3.293 Y-1.358
N8550 X3.227 Y-1.223
N8555 X3.156 Y-1.091
N8560 X3.082 Y-0.96
N8565 X3.003 Y-0.833
N8570 X2.92 Y-0.708
N8575 X2.834 Y-0.585
N8580 X2.743 Y-0.465
N8585 X2.649 Y-0.349
N8590 X2.551 Y-0.235
N8595 X2.45 Y-0.124
N8600 X2.345 Y-0.017
N8605 X2.237 Y0.087
N8610 X2.126 Y0.188
N8615 X2.011 Y0.285
N8620 X1.894 Y0.378
N8625 X1.774 Y0.468
N8630 X1.651 Y0.553
N8635 X1.525 Y0.635
N8640 X1.397 Y0.713
N8645 X1.266 Y0.787
N8650 X1.133 Y0.857
N8655 X0.998 Y0.922
N8660 X0.861 Y0.983
N8665 X0.723 Y1.04
N8670 X0.582 Y1.092
N8675 X0.44 Y1.14
N8680 X0.296 Y1.184
N8685 X0.152 Y1.223
N8690 X0.006 Y1.258
N8695 X-0.141 Y1.288
N8700 X-0.289 Y1.313
N8705 X-0.438 Y1.334
N8710 X-0.587 Y1.35
N8715 X-0.736 Y1.362
N8720 X-0.886 Y1.369
N8725 X-1.036 Y1.372
N8730 X-1.186 Y1.369
N8735 X-1.336 Y1.363
N8740 X-1.486 Y1.351
N8745 X-1.635 Y1.335
N8750 X-1.783 Y1.315
N8755 X-1.931 Y1.289
N8760 X-2.078 Y1.26
N8765 X-2.224 Y1.225
N8770 X-2.369 Y1.187
N8775 X-2.513 Y1.143
N8780 X-2.655 Y1.096
N8785 X-2.796 Y1.044
N8790 X-2.935 Y0.987
N8795 X-3.072 Y0.927
N8800 X-3.207 Y0.862
N8805 X-3.34 Y0.793
N8810 X-3.471 Y0.72
N8815 X-3.6 Y0.643
N8820 X-3.726 Y0.562
N8825 X-3.85 Y0.477
N8830 X-3.971 Y0.389
N8835 X-4.09 Y0.297
N8840 X-4.205 Y0.201
N8845 X-4.318 Y0.102
N8850 X-4.427 Y-0.001
N8855 X-4.533 Y-0.107
N8860 X-4.636 Y-0.216
N8865 X-4.736 Y-0.328
N8870 X-4.832 Y-0.443
N8875 X-4.924 Y-0.561
N8880 X-5.013 Y-0.682
N8885 X-5.098 Y-0.806
N8890 X-5.179 Y-0.932
N8895 X-5.257 Y-1.061
N8900 X-5.33 Y-1.191
N8905 X-5.399 Y-1.324
N8910 X-5.464 Y-1.46
N8915 X-5.525 Y-1.597
N8920 X-5.582 Y-1.736
N8925 X-5.634 Y-1.876
N8930 X-5.682 Y-2.018
N8935 X-5.726 Y-2.162
N8940 X-5.765 Y-2.306
N8945 X-5.8 Y-2.452
N8950 X-5.831 Y-2.599
N8955 X-5.856 Y-2.747
N8960 X-5.878 Y-2.896
N8965 X-5.894 Y-3.045
N8970 X-5.907 Y-3.194
N8975 X-5.914 Y-3.344
N8980 X-5.917 Y-3.494
N8985 X-5.916 Y-3.644
N8990 X-5.91 Y-3.794
N8995 X-5.899 Y-3.943
N9000 X-5.884 Y-4.093
N9005 X-5.864 Y-4.241
N9010 X-5.84 Y-4.389
N9015 X-5.811 Y-4.536
N9020 X-5.777 Y-4.683
N9025 X-5.739 Y-4.828
N9030 X-5.697 Y-4.972
N9035 X-5.65 Y-5.114
N9040 X-5.599 Y-5.255
N9045 X-5.544 Y-5.395
N9050 X-5.484 Y-5.532
N9055 X-5.42 Y-5.668
N9060 X-5.352 Y-5.802
N9065 X-5.28 Y-5.933
N9070 X-5.204 Y-6.062
N9075 X-5.124 Y-6.189
N9080 X-5.04 Y-6.314
N9085 X-4.952 Y-6.435
N9090 X-4.861 Y-6.555
N9095 X-4.766 Y-6.671
N9100 X-4.668 Y-6.784
N9105 X-4.566 Y-6.894
N9110 X-4.461 Y-7.001
N9115 X-4.353 Y-7.105
N9120 X-4.241 Y-7.205
N9125 X-4.127 Y-7.302
N9130 X-4.01 Y-7.396
N9135 X-3.889 Y-7.486
N9140 X-3.767 Y-7.572
N9145 X-3.641 Y-7.654
N9150 X-3.513 Y-7.732
N9155 X-3.383 Y-7.806
N9160 X-3.25 Y-7.877
N9165 X-3.116 Y-7.943
N9170 X-2.979 Y-8.005
N9175 X-2.841 Y-8.062
N9180 X-2.701 Y-8.116
N9185 X-2.559 Y-8.165
N9190 X-2.416 Y-8.21
N9195 X-2.271 Y-8.25
N9200 X-2.126 Y-8.286
N9205 X-1.979 Y-8.318
N9210 X-1.831 Y-8.345
N9215 X-1.683 Y-8.368
N9220 X-1.534 Y-8.386
N9225 X-1.385 Y-8.399
N9230 X-1.235 Y-8.408
N9235 X-1.085 Y-8.412
N9240 X-0.935
N9245 X-0.785 Y-8.407
N9250 X-0.636 Y-8.398
N9255 X-0.486 Y-8.384
N9260 X-0.337 Y-8.365
N9265 X-0.189 Y-8.342
N9270 X-0.042 Y-8.314
N9275 X0.105 Y-8.282
N9280 X0.25 Y-8.245
N9285 X0.394 Y-8.204
N9290 X0.537 Y-8.158
N9295 X0.679 Y-8.108
N9300 X0.819 Y-8.054
N9305 X0.957 Y-7.995
N9310 X1.093 Y-7.933
N9315 X1.227 Y-7.866
N9320 X1.36 Y-7.795
N9325 X1.49 Y-7.72
N9330 X1.617 Y-7.642
N9335 X1.743 Y-7.559
N9340 X1.865 Y-7.473
N9345 X1.986 Y-7.383
N9350 X2.103 Y-7.29
N9355 X2.217 Y-7.193
N9360 X2.329 Y-7.093
N9365 X2.438 Y-6.989
N9370 X2.543 Y-6.883
N9375 X2.645 Y-6.773
N9380 X2.744 Y-6.66
N9385 X2.839 Y-6.544
N9390 X2.931 Y-6.426
N9395 X3.02 Y-6.305
N9400 X3.105 Y-6.181
N9405 X3.186 Y-6.055
N9410 X3.263 Y-5.926
N9415 X3.336 Y-5.795
N9420 X3.406 Y-5.662
N9425 X3.472 Y-5.527
N9430 X3.533 Y-5.391
N9435 X3.591 Y-5.252
N9440 X3.644 Y-5.112
N9445 X3.693 Y-4.97
N9450 X3.738 Y-4.827
N9455 X3.779 Y-4.683
N9460 X3.815 Y-4.537
N9465 X3.847 Y-4.391
N9470 X3.875 Y-4.243
N9475 X3.899 Y-4.095
N9480 X3.918 Y-3.946
N9485 X3.932 Y-3.797
N9490 X3.942 Y-3.647
N9495 X3.948 Y-3.497
N9500 X3.949 Y-3.348
N9505 X3.945 Y-3.198
N9510 X3.937 Y-3.048
N9515 X3.925 Y-2.898
N9520 X3.908 Y-2.749
N9525 X3.886 Y-2.601
N9530 X3.86 Y-2.453
N9535 X3.83 Y-2.306
N9540 X3.795 Y-2.16
N9545 X3.756 Y-2.016
N9550 X3.712 Y-1.872
N9555 X3.664 Y-1.73
N9560 X3.612 Y-1.589
N9565 X3.555 Y-1.45
N9570 X3.494 Y-1.313
N9575 X3.429 Y-1.178
N9580 X3.361 Y-1.045
N9585 X3.288 Y-0.914
N9590 X3.211 Y-0.785
N9595 X3.13 Y-0.658
N9600 X3.045 Y-0.535
N9605 X2.957 Y-0.413
N9610 X2.865 Y-0.295
N9615 X2.77 Y-0.179
N9620 X2.671 Y-0.066
N9625 X2.569 Y0.044
N9630 X2.463 Y0.15
N9635 X2.355 Y0.254
N9640 X2.243 Y0.353
N9645 X2.128 Y0.45
N9650 X2.01 Y0.543
N9655 X1.89 Y0.633
N9660 X1.767 Y0.718
N9665 X1.641 Y0.8
N9670 X1.513 Y0.879
N9675 X1.383 Y0.953
N9680 X1.25 Y1.023
N9685 X1.116 Y1.09
N9690 X0.979 Y1.152
N9695 X0.841 Y1.21
N9700 X0.701 Y1.264
N9705 X0.56 Y1.314
N9710 X0.417 Y1.359
N9715 X0.273 Y1.401
N9720 X0.127 Y1.437
N9725 X-0.019 Y1.47
N9730 X-0.167 Y1.498
N9735 X-0.315 Y1.522
N9740 X-0.463 Y1.541
N9745 X-0.613 Y1.556
N9750 X-0.762 Y1.567
N9755 X-0.912 Y1.573
N9760 X-1.062 Y1.575
N9765 X-1.212 Y1.572
N9770 X-1.362 Y1.564
N9775 X-1.511 Y1.553
N9780 X-1.661 Y1.537
N9785 X-1.809 Y1.516
N9790 X-1.957 Y1.491
N9795 X-2.104 Y1.462
N9800 X-2.25 Y1.428
N9805 X-2.395 Y1.39
N9810 X-2.539 Y1.347
N9815 X-2.682 Y1.301
N9820 X-2.823 Y1.25
N9825 X-2.963 Y1.195
N9830 X-3.101 Y1.136
N9835 X-3.237 Y1.073
N9840 X-3.371 Y1.006
N9845 X-3.503 Y0.935
N9850 X-3.633 Y0.861
N9855 X-3.761 Y0.782
N9860 X-3.886 Y0.7
N9865 X-4.009 Y0.614
N9870 X-4.129 Y0.524
N9875 X-4.247 Y0.431
N9880 X-4.362 Y0.335
N9885 X-4.474 Y0.235
N9890 X-4.583 Y0.132
N9895 X-4.689 Y0.025
N9900 X-4.791 Y-0.084
N9905 X-4.891 Y-0.196
N9910 X-4.987 Y-0.312
N9915 X-5.079 Y-0.43
N9920 X-5.169 Y-0.55
N9925 X-5.254 Y-0.673
N9930 X-5.336 Y-0.799
N9935 X-5.414 Y-0.927
N9940 X-5.488 Y-1.058
N9945 X-5.559 Y-1.19
N9950 X-5.625 Y-1.324
N9955 X-5.688 Y-1.461
N9960 X-5.746 Y-1.599
N9965 X-5.801 Y-1.739
N9970 X-5.851 Y-1.88
N9975 X-5.897 Y-2.023
N9980 X-5.939 Y-2.167
N9985 X-5.977 Y-2.312
N9990 X-6.01 Y-2.458
N9995 X-6.039 Y-2.605
N10000 X-6.064 Y-2.753
N10005 X-6.084 Y-2.902
N10010 X-6.1 Y-3.051
N10015 X-6.111 Y-3.201
N10020 X-6.118 Y-3.351
N10025 X-6.121 Y-3.501
N10030 X-6.119 Y-3.651
N10035 X-6.113 Y-3.8
N10040 X-6.103 Y-3.95
N10045 X-6.088 Y-4.099
N10050 X-6.069 Y-4.248
N10055 X-6.045 Y-4.396
N10060 X-6.017 Y-4.544
N10065 X-5.984 Y-4.69
N10070 X-5.948 Y-4.835
N10075 X-5.907 Y-4.98
N10080 X-5.862 Y-5.123
N10085 X-5.812 Y-5.264
N10090 X-5.759 Y-5.405
N10095 X-5.701 Y-5.543
N10100 X-5.64 Y-5.68
N10105 X-5.574 Y-5.815
N10110 X-5.505 Y-5.948
N10115 X-5.431 Y-6.078
N10120 X-5.354 Y-6.207
N10125 X-5.273 Y-6.333
N10130 X-5.188 Y-6.457
N10135 X-5.1 Y-6.578
N10140 X-5.008 Y-6.697
N10145 X-4.913 Y-6.813
N10150 X-4.814 Y-6.926
N10155 X-4.712 Y-7.036
N10160 X-4.607 Y-7.143
N10165 X-4.499 Y-7.247
N10170 X-4.388 Y-7.348
N10175 X-4.274 Y-7.445
N10180 X-4.157 Y-7.539
N10185 X-4.037 Y-7.629
N10190 X-3.915 Y-7.716
N10195 X-3.79 Y-7.799
N10200 X-3.663 Y-7.879
N10205 X-3.534 Y-7.955
N10210 X-3.402 Y-8.027
N10215 X-3.268 Y-8.095
N10220 X-3.133 Y-8.159
N10225 X-2.995 Y-8.219
N10230 X-2.856 Y-8.275
N10235 X-2.715 Y-8.327
N10240 X-2.573 Y-8.375
N10245 X-2.43 Y-8.418
N10250 X-2.285 Y-8.457
N10255 X-2.139 Y-8.492
N10260 X-1.992 Y-8.523
N10265 X-1.844 Y-8.549
N10270 X-1.696 Y-8.571
N10275 X-1.547 Y-8.589
N10280 X-1.398 Y-8.602
N10285 X-1.248 Y-8.611
N10290 X-1.098 Y-8.616
N10295 X-0.948
N10300 X-0.798 Y-8.611
N10305 X-0.648 Y-8.602
N10310 X-0.499 Y-8.589
N10315 X-0.35 Y-8.572
N10320 X-0.202 Y-8.55
N10325 X-0.054 Y-8.523
N10330 X0.093 Y-8.493
N10335 X0.239 Y-8.458
N10340 X0.384 Y-8.419
N10345 X0.527 Y-8.375
N10350 X0.669 Y-8.328
N10355 X0.81 Y-8.276
N10360 X0.95 Y-8.22
N10365 X1.087 Y-8.16
N10370 X1.223 Y-8.097
N10375 X1.357 Y-8.029
N10380 X1.488 Y-7.957
N10385 X1.618 Y-7.882
N10390 X1.745 Y-7.802
N10395 X1.87 Y-7.72
N10400 X1.993 Y-7.633
N10405 X2.113 Y-7.543
N10410 X2.23 Y-7.45
N10415 X2.345 Y-7.353
N10420 X2.457 Y-7.253
N10425 X2.566 Y-7.15
N10430 X2.672 Y-7.044
N10435 X2.775 Y-6.935
N10440 X2.874 Y-6.823
N10445 X2.971 Y-6.708
N10450 X3.064 Y-6.59
N10455 X3.154 Y-6.47
N10460 X3.24 Y-6.347
N10465 X3.323 Y-6.222
N10470 X3.402 Y-6.095
N10475 X3.477 Y-5.965
N10480 X3.549 Y-5.833
N10485 X3.617 Y-5.699
N10490 X3.681 Y-5.564
N10495 X3.741 Y-5.427
N10500 X3.798 Y-5.287
N10505 X3.85 Y-5.147
N10510 X3.898 Y-5.005
N10515 X3.942 Y-4.862
N10520 X3.983 Y-4.717
N10525 X4.018 Y-4.571
N10530 X4.05 Y-4.425
N10535 X4.078 Y-4.277
N10540 X4.101 Y-4.129
N10545 X4.12 Y-3.98
N10550 X4.135 Y-3.831
N10555 X4.146 Y-3.681
N10560 X4.152 Y-3.532
N10565 X4.154 Y-3.382
N10570 X4.151 Y-3.232
N10575 X4.144 Y-3.082
N10580 X4.133 Y-2.932
N10585 X4.118 Y-2.783
N10590 X4.098 Y-2.634
N10595 X4.074 Y-2.486
N10600 X4.046 Y-2.339
N10605 X4.013 Y-2.193
N10610 X3.976 Y-2.047
N10615 X3.935 Y-1.903
N10620 X3.89 Y-1.76
N10625 X3.841 Y-1.618
N10630 X3.787 Y-1.478
N10635 X3.73 Y-1.339
N10640 X3.668 Y-1.203
N10645 X3.603 Y-1.068
N10650 X3.533 Y-0.935
N10655 X3.46 Y-0.804
N10660 X3.383 Y-0.675
N10665 X3.302 Y-0.549
N10670 X3.218 Y-0.425
N10675 X3.13 Y-0.303
N10680 X3.038 Y-0.184
N10685 X2.943 Y-0.068
N10690 X2.845 Y0.045
N10695 X2.744 Y0.156
N10700 X2.639 Y0.263
N10705 X2.531 Y0.367
N10710 X2.421 Y0.469
N10715 X2.307 Y0.567
N10720 X2.191 Y0.661
N10725 X2.072 Y0.752
N10730 X1.95 Y0.84
N10735 X1.826 Y0.924
N10740 X1.699 Y1.005
N10745 X1.57 Y1.082
N10750 X1.44 Y1.155
N10755 X1.306 Y1.224
N10760 X1.171 Y1.29
N10765 X1.035 Y1.351
N10770 X0.896 Y1.409
N10775 X0.756 Y1.462
N10780 X0.614 Y1.511
N10785 X0.471 Y1.557
N10790 X0.327 Y1.598
N10795 X0.182 Y1.635
N10800 X0.035 Y1.668
N10805 X-0.112 Y1.697
N10810 X-0.26 Y1.721
N10815 X-0.408 Y1.741
N10820 X-0.558 Y1.757
N10825 X-0.707 Y1.769
N10830 X-0.857 Y1.776
N10835 X-1.007 Y1.78
N10840 X-1.157 Y1.778
N10845 X-1.307 Y1.773
N10850 X-1.456 Y1.763
N10855 X-1.606 Y1.749
N10860 X-1.755 Y1.731
N10865 X-1.903 Y1.709
N10870 X-2.051 Y1.682
N10875 X-2.197 Y1.651
N10880 X-2.343 Y1.616
N10885 X-2.488 Y1.577
N10890 X-2.632 Y1.534
N10895 X-2.774 Y1.487
N10900 X-2.915 Y1.435
N10905 X-3.054 Y1.38
N10910 X-3.192 Y1.321
N10915 X-3.328 Y1.258
N10920 X-3.462 Y1.191
N10925 X-3.595 Y1.12
N10930 X-3.725 Y1.045
N10935 X-3.853 Y0.967
N10940 X-3.979 Y0.885
N10945 X-4.102 Y0.8
N10950 X-4.223 Y0.711
N10955 X-4.341 Y0.619
N10960 X-4.457 Y0.524
N10965 X-4.57 Y0.425
N10970 X-4.68 Y0.323
N10975 X-4.787 Y0.218
N10980 X-4.892 Y0.11
N10985 X-4.993 Y0.
N10990 X-5.091 Y-0.114
N10995 X-5.185 Y-0.23
N11000 X-5.277 Y-0.349
N11005 X-5.365 Y-0.471
N11010 X-5.449 Y-0.595
N11015 X-5.53 Y-0.721
N11020 X-5.607 Y-0.85
N11025 X-5.681 Y-0.98
N11030 X-5.751 Y-1.113
N11035 X-5.817 Y-1.248
N11040 X-5.879 Y-1.384
N11045 X-5.937 Y-1.522
N11050 X-5.992 Y-1.662
N11055 X-6.042 Y-1.803
N11060 X-6.089 Y-1.946
N11065 X-6.131 Y-2.09
N11070 X-6.169 Y-2.235
N11075 X-6.204 Y-2.381
N11080 X-6.234 Y-2.528
N11085 X-6.26 Y-2.676
N11090 X-6.281 Y-2.824
N11095 X-6.299 Y-2.973
N11100 X-6.312 Y-3.123
N11105 X-6.321 Y-3.272
N11110 X-6.326 Y-3.422
N11115 X-6.327 Y-3.572
N11120 X-6.323 Y-3.722
N11125 X-6.315 Y-3.872
N11130 X-6.303 Y-4.021
N11135 X-6.287 Y-4.171
N11140 X-6.266 Y-4.319
N11145 X-6.241 Y-4.467
N11150 X-6.212 Y-4.614
N11155 X-6.179 Y-4.761
N11160 X-6.142 Y-4.906
N11165 X-6.101 Y-5.05
N11170 X-6.055 Y-5.193
N11175 X-6.006 Y-5.335
N11180 X-5.953 Y-5.475
N11185 X-5.895 Y-5.613
N11190 X-5.834 Y-5.75
N11195 X-5.769 Y-5.886
N11200 X-5.7 Y-6.019
N11205 X-5.627 Y-6.15
N11210 X-5.551 Y-6.279
N11215 X-5.471 Y-6.406
N11220 X-5.388 Y-6.531
N11225 X-5.301 Y-6.653
N11230 X-5.21 Y-6.773
N11235 X-5.117 Y-6.89
N11240 X-5.02 Y-7.004
N11245 X-4.92 Y-7.116
N11250 X-4.816 Y-7.225
N11255 X-4.71 Y-7.331
N11260 X-4.601 Y-7.433
N11265 X-4.489 Y-7.533
N11270 X-4.374 Y-7.629
N11275 X-4.256 Y-7.723
N11280 X-4.136 Y-7.812
N11285 X-4.013 Y-7.899
N11290 X-3.888 Y-7.981
N11295 X-3.761 Y-8.061
N11300 X-3.631 Y-8.136
N11305 X-3.5 Y-8.208
N11310 X-3.366 Y-8.276
N11315 X-3.23 Y-8.341
N11320 X-3.093 Y-8.401
N11325 X-2.954 Y-8.458
N11330 X-2.814 Y-8.51
N11335 X-2.672 Y-8.559
N11340 X-2.529 Y-8.603
N11345 X-2.384 Y-8.644
N11350 X-2.239 Y-8.68
N11355 X-2.092 Y-8.713
N11360 X-1.945 Y-8.741
N11365 X-1.797 Y-8.765
N11370 X-1.648 Y-8.785
N11375 X-1.499 Y-8.801
N11380 X-1.349 Y-8.812
N11385 X-1.2 Y-8.819
N11390 X-1.05 Y-8.822
N11395 X-0.9 Y-8.821
N11400 X-0.75 Y-8.815
N11405 X-0.6 Y-8.805
N11410 X-0.451 Y-8.791
N11415 X-0.302 Y-8.773
N11420 X-0.154 Y-8.751
N11425 X-0.006 Y-8.724
N11430 X0.141 Y-8.693
N11435 X0.287 Y-8.658
N11440 X0.432 Y-8.619
N11445 X0.575 Y-8.576
N11450 X0.718 Y-8.529
N11455 X0.859 Y-8.478
N11460 X0.998 Y-8.423
N11465 X1.136 Y-8.364
N11470 X1.272 Y-8.301
N11475 X1.407 Y-8.235
N11480 X1.539 Y-8.165
N11485 X1.67 Y-8.091
N11490 X1.798 Y-8.013
N11495 X1.924 Y-7.932
N11500 X2.048 Y-7.847
N11505 X2.17 Y-7.759
N11510 X2.289 Y-7.668
N11515 X2.405 Y-7.574
N11520 X2.519 Y-7.476
N11525 X2.63 Y-7.375
N11530 X2.738 Y-7.271
N11535 X2.844 Y-7.164
N11540 X2.946 Y-7.055
N11545 X3.045 Y-6.942
N11550 X3.141 Y-6.827
N11555 X3.234 Y-6.709
N11560 X3.324 Y-6.589
N11565 X3.41 Y-6.466
N11570 X3.493 Y-6.341
N11575 X3.572 Y-6.214
N11580 X3.648 Y-6.084
N11585 X3.72 Y-5.953
N11590 X3.789 Y-5.82
N11595 X3.854 Y-5.684
N11600 X3.915 Y-5.548
N11605 X3.973 Y-5.409
N11610 X4.026 Y-5.269
N11615 X4.076 Y-5.127
N11620 X4.122 Y-4.985
N11625 X4.164 Y-4.841
N11630 X4.202 Y-4.696
N11635 X4.236 Y-4.549
N11640 X4.266 Y-4.402
N11645 X4.292 Y-4.255
N11650 X4.314 Y-4.106
N11655 X4.331 Y-3.957
N11660 X4.345 Y-3.808
N11665 X4.355 Y-3.658
N11670 X4.36 Y-3.508
N11675 X4.361 Y-3.358
N11680 X4.358 Y-3.208
N11685 X4.351 Y-3.059
N11690 X4.339 Y-2.909
N11695 X4.324 Y-2.76
N11700 X4.304 Y-2.611
N11705 X4.28 Y-2.463
N11710 X4.252 Y-2.316
N11715 X4.22 Y-2.169
N11720 X4.184 Y-2.024
N11725 X4.144 Y-1.879
N11730 X4.1 Y-1.736
N11735 X4.051 Y-1.594
N11740 X3.999 Y-1.453
N11745 X3.943 Y-1.314
N11750 X3.883 Y-1.176
N11755 X3.819 Y-1.041
N11760 X3.752 Y-0.907
N11765 X3.681 Y-0.775
N11770 X3.606 Y-0.645
N11775 X3.527 Y-0.517
N11780 X3.445 Y-0.391
N11785 X3.36 Y-0.268
N11790 X3.271 Y-0.147
N11795 X3.179 Y-0.029
N11800 X3.083 Y0.087
N11805 X2.984 Y0.2
N11810 X2.883 Y0.31
N11815 X2.778 Y0.417
N11820 X2.67 Y0.521
N11825 X2.559 Y0.622
N11830 X2.445 Y0.72
N11835 X2.329 Y0.815
N11840 X2.21 Y0.907
N11845 X2.089 Y0.995
N11850 X1.965 Y1.08
N11855 X1.839 Y1.161
N11860 X1.711 Y1.239
N11865 X1.581 Y1.313
N11870 X1.448 Y1.384
N11875 X1.314 Y1.451
N11880 X1.178 Y1.514
N11885 X1.04 Y1.573
N11890 X0.901 Y1.629
N11895 X0.76 Y1.68
N11900 X0.618 Y1.728
N11905 X0.475 Y1.772
N11910 X0.33 Y1.812
N11915 X0.184 Y1.847
N11920 X0.038 Y1.879
N11925 X-0.11 Y1.907
N11930 X-0.258 Y1.931
N11935 X-0.407 Y1.95
N11940 X-0.556 Y1.966
N11945 X-0.705 Y1.977
N11950 X-0.855 Y1.984
N11955 X-1.005 Y1.987
N11960 X-1.155 Y1.986
N11965 X-1.305 Y1.981
N11970 X-1.455 Y1.972
N11975 X-1.604 Y1.958
N11980 X-1.753 Y1.941
N11985 X-1.902 Y1.919
N11990 X-2.049 Y1.894
N11995 X-2.196 Y1.864
N12000 X-2.343 Y1.831
N12005 X-2.488 Y1.793
N12010 X-2.632 Y1.751
N12015 X-2.775 Y1.706
N12020 X-2.917 Y1.656
N12025 X-3.057 Y1.603
N12030 X-3.195 Y1.546
N12035 X-3.333 Y1.485
N12040 X-3.468 Y1.421
N12045 X-3.602 Y1.352
N12050 X-3.733 Y1.281
N12055 X-3.863 Y1.205
N12060 X-3.991 Y1.126
N12065 X-4.116 Y1.044
N12070 X-4.239 Y0.958
N12075 X-4.36 Y0.869
N12080 X-4.478 Y0.777
N12085 X-4.593 Y0.681
N12090 X-4.706 Y0.583
N12095 X-4.817 Y0.481
N12100 X-4.924 Y0.376
N12105 X-5.029 Y0.269
N12110 X-5.13 Y0.158
N12115 X-5.229 Y0.045
N12120 X-5.324 Y-0.071
N12125 X-5.416 Y-0.189
N12130 X-5.505 Y-0.31
N12135 X-5.591 Y-0.433
N12140 X-5.673 Y-0.558
N12145 X-5.752 Y-0.686
N12150 X-5.827 Y-0.816
N12155 X-5.899 Y-0.947
N12160 X-5.967 Y-1.081
N12165 X-6.032 Y-1.216
N12170 X-6.093 Y-1.354
N12175 X-6.15 Y-1.492
N12180 X-6.203 Y-1.633
N12185 X-6.252 Y-1.774
N12190 X-6.298 Y-1.917
N12195 X-6.339 Y-2.061
N12200 X-6.377 Y-2.206
N12205 X-6.411 Y-2.353
N12210 X-6.44 Y-2.5
N12215 X-6.466 Y-2.647
N12220 X-6.488 Y-2.796
N12225 X-6.505 Y-2.945
N12230 X-6.519 Y-3.094
N12235 X-6.528 Y-3.244
N12240 X-6.534 Y-3.394
N12245 X-6.535 Y-3.544
N12250 X-6.532 Y-3.694
N12255 X-6.525 Y-3.844
N12260 X-6.515 Y-3.993
N12265 X-6.5 Y-4.142
N12270 X-6.481 Y-4.291
N12275 X-6.457 Y-4.439
N12280 X-6.43 Y-4.587
N12285 X-6.399 Y-4.734
N12290 X-6.364 Y-4.88
N12295 X-6.325 Y-5.024
N12300 X-6.282 Y-5.168
N12305 X-6.235 Y-5.311
N12310 X-6.185 Y-5.452
N12315 X-6.13 Y-5.591
N12320 X-6.072 Y-5.73
N12325 X-6.01 Y-5.866
N12330 X-5.944 Y-6.001
N12335 X-5.875 Y-6.134
N12340 X-5.802 Y-6.265
N12345 X-5.725 Y-6.394
N12350 X-5.645 Y-6.521
N12355 X-5.562 Y-6.646
N12360 X-5.475 Y-6.768
N12365 X-5.385 Y-6.888
N12370 X-5.291 Y-7.005
N12375 X-5.195 Y-7.12
N12380 X-5.095 Y-7.232
N12385 X-4.993 Y-7.342
N12390 X-4.887 Y-7.448
N12395 X-4.779 Y-7.552
N12400 X-4.668 Y-7.653
N12405 X-4.554 Y-7.75
N12410 X-4.437 Y-7.845
N12415 X-4.318 Y-7.936
N12420 X-4.197 Y-8.024
N12425 X-4.073 Y-8.109
N12430 X-3.947 Y-8.19
N12435 X-3.819 Y-8.268
N12440 X-3.689 Y-8.343
N12445 X-3.556 Y-8.413
N12450 X-3.422 Y-8.48
N12455 X-3.286 Y-8.544
N12460 X-3.149 Y-8.604
N12465 X-3.01 Y-8.66
N12470 X-2.869 Y-8.712
N12475 X-2.727 Y-8.76
N12480 X-2.584 Y-8.805
N12485 X-2.439 Y-8.845
N12490 X-2.294 Y-8.882
N12495 X-2.147 Y-8.914
N12500 X-2. Y-8.943
N12505 X-1.852 Y-8.967
N12510 X-1.704 Y-8.988
N12515 X-1.554 Y-9.004
N12520 X-1.405 Y-9.017
N12525 X-1.255 Y-9.025
N12530 X-1.105 Y-9.03
N12535 X-0.955
N12540 X-0.805 Y-9.026
N12545 X-0.656 Y-9.018
N12550 X-0.506 Y-9.006
N12555 X-0.357 Y-8.99
N12560 X-0.208 Y-8.97
N12565 X-0.06 Y-8.946
N12570 X0.087 Y-8.918
N12575 X0.234 Y-8.886
N12580 X0.379 Y-8.85
N12585 X0.524 Y-8.81
N12590 X0.667 Y-8.766
N12595 X0.81 Y-8.718
N12600 X0.95 Y-8.667
N12605 X1.09 Y-8.611
N12610 X1.228 Y-8.552
N12615 X1.364 Y-8.489
N12620 X1.498 Y-8.423
N12625 X1.631 Y-8.353
N12630 X1.762 Y-8.279
N12635 X1.89 Y-8.202
N12640 X2.017 Y-8.121
N12645 X2.141 Y-8.038
N12650 X2.263 Y-7.95
N12655 X2.383 Y-7.86
N12660 X2.5 Y-7.766
N12665 X2.615 Y-7.67
N12670 X2.727 Y-7.57
N12675 X2.837 Y-7.468
N12680 X2.943 Y-7.362
N12685 X3.047 Y-7.254
N12690 X3.148 Y-7.143
N12695 X3.246 Y-7.029
N12700 X3.341 Y-6.913
N12705 X3.433 Y-6.794
N12710 X3.521 Y-6.673
N12715 X3.607 Y-6.55
N12720 X3.689 Y-6.425
N12725 X3.767 Y-6.297
N12730 X3.843 Y-6.167
N12735 X3.914 Y-6.035
N12740 X3.983 Y-5.902
N12745 X4.048 Y-5.767
N12750 X4.109 Y-5.63
N12755 X4.166 Y-5.491
N12760 X4.22 Y-5.351
N12765 X4.27 Y-5.21
N12770 X4.317 Y-5.067
N12775 X4.359 Y-4.923
N12780 X4.398 Y-4.778
N12785 X4.433 Y-4.632
N12790 X4.464 Y-4.486
N12795 X4.491 Y-4.338
N12800 X4.514 Y-4.19
N12805 X4.533 Y-4.041
N12810 X4.548 Y-3.892
N12815 X4.56 Y-3.742
N12820 X4.567 Y-3.593
N12825 X4.57 Y-3.443
N12830 X4.569 Y-3.293
N12835 X4.565 Y-3.143
N12840 X4.556 Y-2.993
N12845 X4.543 Y-2.843
N12850 X4.527 Y-2.694
N12855 X4.506 Y-2.546
N12860 X4.481 Y-2.398
N12865 X4.452 Y-2.251
N12870 X4.42 Y-2.104
N12875 X4.383 Y-1.959
N12880 X4.343 Y-1.814
N12885 X4.299 Y-1.671
N12890 X4.25 Y-1.529
N12895 X4.198 Y-1.388
N12900 X4.143 Y-1.249
N12905 X4.083 Y-1.111
N12910 X4.02 Y-0.975
N12915 X3.953 Y-0.841
N12920 X3.883 Y-0.708
N12925 X3.809 Y-0.578
N12930 X3.732 Y-0.449
N12935 X3.651 Y-0.323
N12940 X3.567 Y-0.199
N12945 X3.479 Y-0.077
N12950 X3.388 Y0.042
N12955 X3.294 Y0.159
N12960 X3.197 Y0.274
N12965 X3.097 Y0.386
N12970 X2.994 Y0.495
N12975 X2.889 Y0.601
N12980 X2.78 Y0.704
N12985 X2.668 Y0.805
N12990 X2.554 Y0.902
N12995 X2.438 Y0.996
N13000 X2.318 Y1.087
N13005 X2.197 Y1.175
N13010 X2.073 Y1.26
N13015 X1.947 Y1.341
N13020 X1.819 Y1.419
N13025 X1.688 Y1.493
N13030 X1.556 Y1.564
N13035 X1.422 Y1.631
N13040 X1.286 Y1.695
N13045 X1.149 Y1.755
N13050 X1.01 Y1.811
N13055 X0.869 Y1.864
N13060 X0.727 Y1.913
N13065 X0.584 Y1.958
N13070 X0.44 Y1.999
N13075 X0.295 Y2.036
N13080 X0.149 Y2.07
N13085 X0.002 Y2.1
N13090 X-0.146 Y2.125
N13095 X-0.295 Y2.147
N13100 X-0.443 Y2.165
N13105 X-0.593 Y2.179
N13110 X-0.742 Y2.189
N13115 X-0.892 Y2.195
N13120 X-1.042 Y2.197
N13125 X-1.192 Y2.195
N13130 X-1.342 Y2.189
N13135 X-1.492 Y2.18
N13140 X-1.641 Y2.166
N13145 X-1.79 Y2.148
N13150 X-1.939 Y2.126
N13155 X-2.086 Y2.101
N13160 X-2.234 Y2.071
N13165 X-2.38 Y2.038
N13170 X-2.525 Y2.001
N13175 X-2.669 Y1.96
N13180 X-2.812 Y1.915
N13185 X-2.954 Y1.866
N13190 X-3.095 Y1.814
N13195 X-3.234 Y1.758
N13200 X-3.372 Y1.698
N13205 X-3.508 Y1.635
N13210 X-3.642 Y1.568
N13215 X-3.775 Y1.498
N13220 X-3.905 Y1.424
N13225 X-4.034 Y1.347
N13230 X-4.161 Y1.267
N13235 X-4.285 Y1.183
N13240 X-4.407 Y1.096
N13245 X-4.527 Y1.006
N13250 X-4.644 Y0.912
N13255 X-4.759 Y0.816
N13260 X-4.872 Y0.717
N13265 X-4.982 Y0.614
N13270 X-5.089 Y0.509
N13275 X-5.193 Y0.401
N13280 X-5.294 Y0.291
N13285 X-5.392 Y0.178
N13290 X-5.488 Y0.062
N13295 X-5.58 Y-0.056
N13300 X-5.669 Y-0.177
N13305 X-5.755 Y-0.3
N13310 X-5.838 Y-0.425
N13315 X-5.917 Y-0.552
N13320 X-5.993 Y-0.682
N13325 X-6.066 Y-0.813
N13330 X-6.135 Y-0.946
N13335 X-6.201 Y-1.081
N13340 X-6.263 Y-1.217
N13345 X-6.321 Y-1.356
N13350 X-6.376 Y-1.495
N13355 X-6.427 Y-1.636
N13360 X-6.475 Y-1.779
N13365 X-6.519 Y-1.922
N13370 X-6.559 Y-2.067
N13375 X-6.595 Y-2.212
N13380 X-6.627 Y-2.359
N13385 X-6.656 Y-2.506
N13390 X-6.68 Y-2.654
N13395 X-6.701 Y-2.802
N13400 X-6.718 Y-2.951
N13405 X-6.731 Y-3.101
N13410 X-6.74 Y-3.251
N13415 X-6.745 Y-3.401
N13420 X-6.746 Y-3.551
N13425 X-6.743 Y-3.701
N13430 X-6.736 Y-3.85
N13435 X-6.725 Y-4.
N13440 X-6.711 Y-4.149
N13445 X-6.692 Y-4.298
N13450 X-6.67 Y-4.446
N13455 X-6.643 Y-4.594
N13460 X-6.613 Y-4.741
N13465 X-6.579 Y-4.887
N13470 X-6.541 Y-5.032
N13475 X-6.5 Y-5.176
N13480 X-6.454 Y-5.319
N13485 X-6.405 Y-5.461
N13490 X-6.353 Y-5.602
N13495 X-6.296 Y-5.741
N13500 X-6.236 Y-5.878
N13505 X-6.172 Y-6.014
N13510 X-6.105 Y-6.148
N13515 X-6.035 Y-6.28
N13520 X-5.96 Y-6.411
N13525 X-5.883 Y-6.539
N13530 X-5.802 Y-6.665
N13535 X-5.718 Y-6.79
N13540 X-5.631 Y-6.912
N13545 X-5.54 Y-7.031
N13550 X-5.447 Y-7.148
N13555 X-5.35 Y-7.263
N13560 X-5.25 Y-7.375
N13565 X-5.148 Y-7.485
N13570 X-5.042 Y-7.591
N13575 X-4.934 Y-7.695
N13580 X-4.823 Y-7.796
N13585 X-4.71 Y-7.894
N13590 X-4.594 Y-7.99
N13595 X-4.475 Y-8.082
N13600 X-4.355 Y-8.171
N13605 X-4.231 Y-8.256
N13610 X-4.106 Y-8.339
N13615 X-3.979 Y-8.418
N13620 X-3.849 Y-8.494
N13625 X-3.718 Y-8.566
N13630 X-3.585 Y-8.635
N13635 X-3.45 Y-8.7
N13640 X-3.313 Y-8.762
N13645 X-3.175 Y-8.82
N13650 X-3.035 Y-8.875
N13655 X-2.894 Y-8.926
N13660 X-2.752 Y-8.973
N13665 X-2.608 Y-9.017
N13670 X-2.463 Y-9.056
N13675 X-2.318 Y-9.092
N13680 X-2.171 Y-9.124
N13685 X-2.024 Y-9.153
N13690 X-1.876 Y-9.177
N13695 X-1.727 Y-9.197
N13700 X-1.578 Y-9.214
N13705 X-1.429 Y-9.226
N13710 X-1.279 Y-9.235
N13715 X-1.129 Y-9.24
N13720 X-0.979 Y-9.241
N13725 X-0.829 Y-9.238
N13730 X-0.679 Y-9.231
N13735 X-0.53 Y-9.22
N13740 X-0.38 Y-9.205
N13745 X-0.232 Y-9.186
N13750 X-0.083 Y-9.163
N13755 X0.064 Y-9.137
N13760 X0.211 Y-9.107
N13765 X0.357 Y-9.073
N13770 X0.502 Y-9.035
N13775 X0.646 Y-8.993
N13780 X0.789 Y-8.947
N13785 X0.931 Y-8.898
N13790 X1.072 Y-8.846
N13795 X1.211 Y-8.789
N13800 X1.348 Y-8.729
N13805 X1.484 Y-8.666
N13810 X1.618 Y-8.598
N13815 X1.75 Y-8.528
N13820 X1.881 Y-8.454
N13825 X2.009 Y-8.377
N13830 X2.136 Y-8.296
N13835 X2.26 Y-8.212
N13840 X2.383 Y-8.125
N13845 X2.502 Y-8.035
N13850 X2.62 Y-7.942
N13855 X2.735 Y-7.846
N13860 X2.848 Y-7.747
N13865 X2.958 Y-7.645
N13870 X3.065 Y-7.54
N13875 X3.17 Y-7.432
N13880 X3.272 Y-7.322
N13885 X3.371 Y-7.21
N13890 X3.467 Y-7.094
N13895 X3.56 Y-6.977
N13900 X3.65 Y-6.857
N13905 X3.737 Y-6.735
N13910 X3.821 Y-6.61
N13915 X3.901 Y-6.484
N13920 X3.979 Y-6.355
N13925 X4.053 Y-6.225
N13930 X4.124 Y-6.093
N13935 X4.191 Y-5.959
N13940 X4.255 Y-5.823
N13945 X4.315 Y-5.686
N13950 X4.372 Y-5.547
N13955 X4.426 Y-5.407
N13960 X4.475 Y-5.265
N13965 X4.521 Y-5.122
N13970 X4.564 Y-4.979
N13975 X4.603 Y-4.834
N13980 X4.638 Y-4.688
N13985 X4.669 Y-4.541
N13990 X4.696 Y-4.394
N13995 X4.72 Y-4.246
N14000 X4.74 Y-4.097
N14005 X4.756 Y-3.948
N14010 X4.768 Y-3.798
N14015 X4.777 Y-3.648
N14020 X4.781 Y-3.499
N14025 X4.782 Y-3.349
N14030 X4.779 Y-3.199
N14035 X4.772 Y-3.049
N14040 X4.761 Y-2.899
N14045 X4.746 Y-2.75
N14050 X4.727 Y-2.601
N14055 X4.705 Y-2.453
N14060 X4.679 Y-2.305
N14065 X4.649 Y-2.158
N14070 X4.615 Y-2.012
N14075 X4.577 Y-1.867
N14080 X4.536 Y-1.723
N14085 X4.491 Y-1.579
N14090 X4.442 Y-1.438
N14095 X4.39 Y-1.297
N14100 X4.334 Y-1.158
N14105 X4.274 Y-1.02
N14110 X4.211 Y-0.884
N14115 X4.144 Y-0.75
N14120 X4.074 Y-0.617
N14125 X4. Y-0.487
N14130 X3.923 Y-0.358
N14135 X3.843 Y-0.231
N14140 X3.76 Y-0.107
N14145 X3.673 Y0.016
N14150 X3.583 Y0.136
N14155 X3.49 Y0.254
N14160 X3.394 Y0.369
N14165 X3.295 Y0.482
N14170 X3.194 Y0.592
N14175 X3.089 Y0.7
N14180 X2.982 Y0.804
N14185 X2.872 Y0.906
N14190 X2.759 Y1.005
N14195 X2.644 Y1.102
N14200 X2.526 Y1.195
N14205 X2.406 Y1.285
N14210 X2.284 Y1.372
N14215 X2.16 Y1.456
N14220 X2.033 Y1.536
N14225 X1.905 Y1.613
N14230 X1.774 Y1.687
N14235 X1.642 Y1.758
N14240 X1.508 Y1.825
N14245 X1.372 Y1.888
N14250 X1.234 Y1.949
N14255 X1.095 Y2.005
N14260 X0.955 Y2.058
N14265 X0.813 Y2.107
N14270 X0.67 Y2.153
N14275 X0.526 Y2.195
N14280 X0.381 Y2.233
N14285 X0.235 Y2.268
N14290 X0.089 Y2.299
N14295 X-0.059 Y2.326
N14300 X-0.207 Y2.349
N14305 X-0.356 Y2.369
N14310 X-0.505 Y2.384
N14315 X-0.655 Y2.396
N14320 X-0.804 Y2.404
N14325 X-0.954 Y2.408
N14330 X-1.104 Y2.409
N14335 X-1.254 Y2.405
N14340 X-1.404 Y2.398
N14345 X-1.554 Y2.387
N14350 X-1.703 Y2.372
N14355 X-1.852 Y2.354
N14360 X-2. Y2.331
N14365 X-2.148 Y2.305
N14370 X-2.295 Y2.275
N14375 X-2.441 Y2.241
N14380 X-2.586 Y2.204
N14385 X-2.73 Y2.163
N14390 X-2.874 Y2.118
N14395 X-3.016 Y2.07
N14400 X-3.156 Y2.018
N14405 X-3.296 Y1.962
N14410 X-3.434 Y1.903
N14415 X-3.57 Y1.841
N14420 X-3.705 Y1.775
N14425 X-3.838 Y1.706
N14430 X-3.969 Y1.633
N14435 X-4.098 Y1.557
N14440 X-4.225 Y1.478
N14445 X-4.351 Y1.395
N14450 X-4.474 Y1.31
N14455 X-4.595 Y1.221
N14460 X-4.714 Y1.129
N14465 X-4.83 Y1.035
N14470 X-4.944 Y0.937
N14475 X-5.055 Y0.837
N14480 X-5.164 Y0.733
N14485 X-5.27 Y0.627
N14490 X-5.374 Y0.519
N14495 X-5.475 Y0.408
N14500 X-5.572 Y0.294
N14505 X-5.667 Y0.178
N14510 X-5.759 Y0.059
N14515 X-5.848 Y-0.062
N14520 X-5.934 Y-0.185
N14525 X-6.017 Y-0.31
N14530 X-6.096 Y-0.437
N14535 X-6.172 Y-0.566
N14540 X-6.245 Y-0.697
N14545 X-6.315 Y-0.83
N14550 X-6.381 Y-0.965
N14555 X-6.444 Y-1.101
N14560 X-6.503 Y-1.239
N14565 X-6.559 Y-1.378
N14570 X-6.611 Y-1.519
N14575 X-6.66 Y-1.66
N14580 X-6.705 Y-1.803
N14585 X-6.747 Y-1.948
N14590 X-6.785 Y-2.093
N14595 X-6.819 Y-2.239
N14600 X-6.849 Y-2.386
N14605 X-6.876 Y-2.533
N14610 X-6.899 Y-2.681
N14615 X-6.918 Y-2.83
N14620 X-6.934 Y-2.979
N14625 X-6.946 Y-3.129
N14630 X-6.954 Y-3.279
N14635 X-6.958 Y-3.429
N14640 Y-3.579
N14645 X-6.955 Y-3.729
N14650 X-6.947 Y-3.878
N14655 X-6.936 Y-4.028
N14660 X-6.922 Y-4.177
N14665 X-6.903 Y-4.326
N14670 X-6.881 Y-4.475
N14675 X-6.855 Y-4.622
N14680 X-6.825 Y-4.769
N14685 X-6.791 Y-4.915
N14690 X-6.754 Y-5.061
N14695 X-6.713 Y-5.205
N14700 X-6.669 Y-5.348
N14705 X-6.621 Y-5.49
N14710 X-6.569 Y-5.631
N14715 X-6.514 Y-5.771
N14720 X-6.455 Y-5.909
N14725 X-6.393 Y-6.045
N14730 X-6.327 Y-6.18
N14735 X-6.258 Y-6.313
N14740 X-6.186 Y-6.445
N14745 X-6.111 Y-6.574
N14750 X-6.032 Y-6.702
N14755 X-5.95 Y-6.828
N14760 X-5.864 Y-6.951
N14765 X-5.776 Y-7.072
N14770 X-5.685 Y-7.191
N14775 X-5.591 Y-7.308
N14780 X-5.493 Y-7.422
N14785 X-5.393 Y-7.534
N14790 X-5.29 Y-7.643
N14795 X-5.185 Y-7.75
N14800 X-5.077 Y-7.853
N14805 X-4.966 Y-7.954
N14810 X-4.852 Y-8.053
N14815 X-4.737 Y-8.148
N14820 X-4.618 Y-8.24
N14825 X-4.498 Y-8.33
N14830 X-4.375 Y-8.416
N14835 X-4.25 Y-8.499
N14840 X-4.123 Y-8.579
N14845 X-3.994 Y-8.656
N14850 X-3.864 Y-8.729
N14855 X-3.731 Y-8.799
N14860 X-3.597 Y-8.866
N14865 X-3.461 Y-8.929
N14870 X-3.323 Y-8.989
N14875 X-3.184 Y-9.046
N14880 X-3.044 Y-9.098
N14885 X-2.902 Y-9.148
N14890 X-2.759 Y-9.193
N14895 X-2.615 Y-9.236
N14900 X-2.47 Y-9.274
N14905 X-2.324 Y-9.309
N14910 X-2.178 Y-9.34
N14915 X-2.03 Y-9.367
N14920 X-1.882 Y-9.391
N14925 X-1.733 Y-9.411
N14930 X-1.584 Y-9.427
N14935 X-1.435 Y-9.439
N14940 X-1.285 Y-9.448
N14945 X-1.135 Y-9.453
N14950 X-0.985 Y-9.454
N14955 X-0.835 Y-9.451
N14960 X-0.685 Y-9.444
N14965 X-0.536 Y-9.434
N14970 X-0.386 Y-9.42
N14975 X-0.237 Y-9.402
N14980 X-0.089 Y-9.38
N14985 X0.059 Y-9.355
N14990 X0.206 Y-9.326
N14995 X0.352 Y-9.293
N15000 X0.498 Y-9.256
N15005 X0.642 Y-9.216
N15010 X0.786 Y-9.172
N15015 X0.928 Y-9.125
N15020 X1.069 Y-9.074
N15025 X1.209 Y-9.02
N15030 X1.348 Y-8.962
N15035 X1.485 Y-8.901
N15040 X1.62 Y-8.836
N15045 X1.754 Y-8.768
N15050 X1.886 Y-8.697
N15055 X2.016 Y-8.622
N15060 X2.144 Y-8.544
N15065 X2.27 Y-8.463
N15070 X2.394 Y-8.379
N15075 X2.516 Y-8.292
N15080 X2.636 Y-8.202
N15085 X2.754 Y-8.109
N15090 X2.869 Y-8.013
N15095 X2.982 Y-7.914
N15100 X3.092 Y-7.812
N15105 X3.2 Y-7.708
N15110 X3.305 Y-7.601
N15115 X3.407 Y-7.491
N15120 X3.507 Y-7.379
N15125 X3.604 Y-7.265
N15130 X3.698 Y-7.148
N15135 X3.789 Y-7.029
N15140 X3.877 Y-6.907
N15145 X3.963 Y-6.784
N15150 X4.045 Y-6.658
N15155 X4.124 Y-6.531
N15160 X4.199 Y-6.401
N15165 X4.272 Y-6.27
N15170 X4.341 Y-6.137
N15175 X4.408 Y-6.002
N15180 X4.47 Y-5.866
N15185 X4.53 Y-5.728
N15190 X4.586 Y-5.589
N15195 X4.638 Y-5.449
N15200 X4.687 Y-5.307
N15205 X4.733 Y-5.164
N15210 X4.775 Y-5.02
N15215 X4.813 Y-4.875
N15220 X4.848 Y-4.729
N15225 X4.879 Y-4.582
N15230 X4.907 Y-4.435
N15235 X4.93 Y-4.287
N15240 X4.951 Y-4.138
N15245 X4.967 Y-3.989
N15250 X4.98 Y-3.84
N15255 X4.989 Y-3.69
N15260 X4.994 Y-3.54
N15265 X4.996 Y-3.39
N15270 X4.994 Y-3.24
N15275 X4.988 Y-3.09
N15280 X4.978 Y-2.94
N15285 X4.965 Y-2.791
N15290 X4.948 Y-2.642
N15295 X4.928 Y-2.493
N15300 X4.903 Y-2.345
N15305 X4.875 Y-2.198
N15310 X4.844 Y-2.051
N15315 X4.808 Y-1.906
N15320 X4.769 Y-1.761
N15325 X4.727 Y-1.617
N15330 X4.681 Y-1.474
N15335 X4.631 Y-1.333
N15340 X4.578 Y-1.192
N15345 X4.521 Y-1.054
N15350 X4.461 Y-0.916
N15355 X4.398 Y-0.78
N15360 X4.331 Y-0.646
N15365 X4.26 Y-0.513
N15370 X4.187 Y-0.383
N15375 X4.11 Y-0.254
N15380 X4.03 Y-0.127
N15385 X3.947 Y-0.002
N15390 X3.861 Y0.121
N15395 X3.771 Y0.241
N15400 X3.679 Y0.359
N15405 X3.584 Y0.475
N15410 X3.486 Y0.589
N15415 X3.385 Y0.7
N15420 X3.281 Y0.808
N15425 X3.175 Y0.914
N15430 X3.066 Y1.017
N15435 X2.955 Y1.118
N15440 X2.841 Y1.215
N15445 X2.725 Y1.31
N15450 X2.606 Y1.402
N15455 X2.485 Y1.491
N15460 X2.362 Y1.577
N15465 X2.237 Y1.66
N15470 X2.11 Y1.739
N15475 X1.981 Y1.816
N15480 X1.85 Y1.889
N15485 X1.717 Y1.959
N15490 X1.583 Y2.026
N15495 X1.447 Y2.089
N15500 X1.31 Y2.149
N15505 X1.171 Y2.205
N15510 X1.03 Y2.258
N15515 X0.889 Y2.308
N15520 X0.746 Y2.354
N15525 X0.602 Y2.396
N15530 X0.457 Y2.435
N15535 X0.311 Y2.47
N15540 X0.165 Y2.502
N15545 X0.017 Y2.53
N15550 X-0.131 Y2.554
N15555 X-0.279 Y2.575
N15560 X-0.428 Y2.592
N15565 X-0.578 Y2.605
N15570 X-0.727 Y2.615
N15575 X-0.877 Y2.621
N15580 X-1.027 Y2.623
N15585 X-1.177 Y2.622
N15590 X-1.327 Y2.617
N15595 X-1.477 Y2.608
N15600 X-1.626 Y2.596
N15605 X-1.775 Y2.579
N15610 X-1.924 Y2.56
N15615 X-2.072 Y2.536
N15620 X-2.22 Y2.509
N15625 X-2.367 Y2.479
N15630 X-2.513 Y2.444
N15635 X-2.658 Y2.407
N15640 X-2.802 Y2.365
N15645 X-2.945 Y2.32
N15650 X-3.087 Y2.272
N15655 X-3.228 Y2.22
N15660 X-3.367 Y2.165
N15665 X-3.505 Y2.106
N15670 X-3.642 Y2.044
N15675 X-3.777 Y1.979
N15680 X-3.91 Y1.91
N15685 X-4.042 Y1.838
N15690 X-4.172 Y1.763
N15695 X-4.3 Y1.685
N15700 X-4.426 Y1.603
N15705 X-4.55 Y1.519
N15710 X-4.672 Y1.431
N15715 X-4.791 Y1.341
N15720 X-4.909 Y1.248
N15725 X-5.024 Y1.152
N15730 X-5.137 Y1.053
N15735 X-5.247 Y0.951
N15740 X-5.355 Y0.847
N15745 X-5.46 Y0.74
N15750 X-5.563 Y0.63
N15755 X-5.663 Y0.519
N15760 X-5.76 Y0.404
N15765 X-5.854 Y0.288
N15770 X-5.945 Y0.169
N15775 X-6.034 Y0.048
N15780 X-6.119 Y-0.076
N15785 X-6.202 Y-0.201
N15790 X-6.281 Y-0.328
N15795 X-6.358 Y-0.457
N15800 X-6.431 Y-0.588
N15805 X-6.5 Y-0.721
N15810 X-6.567 Y-0.856
N15815 X-6.63 Y-0.992
N15820 X-6.69 Y-1.129
N15825 X-6.747 Y-1.268
N15830 X-6.8 Y-1.408
N15835 X-6.85 Y-1.55
N15840 X-6.896 Y-1.693
N15845 X-6.939 Y-1.836
N15850 X-6.978 Y-1.981
N15855 X-7.014 Y-2.127
N15860 X-7.046 Y-2.273
N15865 X-7.074 Y-2.421
N15870 X-7.099 Y-2.568
N15875 X-7.121 Y-2.717
N15880 X-7.138 Y-2.866
N15885 X-7.152 Y-3.015
N15890 X-7.163 Y-3.165
N15895 X-7.17 Y-3.315
N15900 X-7.173 Y-3.465
N15905 X-7.172 Y-3.615
N15910 X-7.168 Y-3.765
N15915 X-7.16 Y-3.914
N15920 X-7.149 Y-4.064
N15925 X-7.134 Y-4.213
N15930 X-7.115 Y-4.362
N15935 X-7.093 Y-4.51
N15940 X-7.067 Y-4.658
N15945 X-7.037 Y-4.805
N15950 X-7.004 Y-4.951
N15955 X-6.967 Y-5.097
N15960 X-6.927 Y-5.241
N15965 X-6.883 Y-5.385
N15970 X-6.836 Y-5.527
N15975 X-6.785 Y-5.668
N15980 X-6.731 Y-5.808
N15985 X-6.673 Y-5.947
N15990 X-6.612 Y-6.084
N15995 X-6.548 Y-6.219
N16000 X-6.48 Y-6.353
N16005 X-6.409 Y-6.485
N16010 X-6.335 Y-6.616
N16015 X-6.258 Y-6.744
N16020 X-6.178 Y-6.871
N16025 X-6.095 Y-6.996
N16030 X-6.008 Y-7.119
N16035 X-5.919 Y-7.239
N16040 X-5.827 Y-7.358
N16045 X-5.732 Y-7.474
N16050 X-5.634 Y-7.587
N16055 X-5.534 Y-7.699
N16060 X-5.43 Y-7.807
N16065 X-5.324 Y-7.914
N16070 X-5.216 Y-8.017
N16075 X-5.105 Y-8.118
N16080 X-4.992 Y-8.216
N16085 X-4.876 Y-8.312
N16090 X-4.758 Y-8.404
N16095 X-4.637 Y-8.494
N16100 X-4.515 Y-8.58
N16105 X-4.39 Y-8.664
N16110 X-4.264 Y-8.745
N16115 X-4.135 Y-8.822
N16120 X-4.005 Y-8.896
N16125 X-3.873 Y-8.968
N16130 X-3.739 Y-9.035
N16135 X-3.604 Y-9.1
N16140 X-3.467 Y-9.161
N16145 X-3.329 Y-9.219
N16150 X-3.189 Y-9.274
N16155 X-3.048 Y-9.325
N16160 X-2.906 Y-9.373
N16165 X-2.762 Y-9.417
N16170 X-2.618 Y-9.457
N16175 X-2.473 Y-9.495
N16180 X-2.326 Y-9.528
N16185 X-2.18 Y-9.558
N16190 X-2.032 Y-9.585
N16195 X-1.884 Y-9.608
N16200 X-1.735 Y-9.627
N16205 X-1.586 Y-9.643
N16210 X-1.436 Y-9.655
N16215 X-1.286 Y-9.663
N16220 X-1.136 Y-9.667
N16225 X-0.986 Y-9.668
N16230 X-0.837 Y-9.666
N16235 X-0.687 Y-9.66
N16240 X-0.537 Y-9.65
N16245 X-0.388 Y-9.636
N16250 X-0.239 Y-9.619
N16255 X-0.09 Y-9.598
N16260 X0.058 Y-9.573
N16265 X0.205 Y-9.545
N16270 X0.352 Y-9.514
N16275 X0.498 Y-9.478
N16280 X0.643 Y-9.44
N16285 X0.787 Y-9.398
N16290 X0.929 Y-9.352
N16295 X1.071 Y-9.303
N16300 X1.212 Y-9.25
N16305 X1.351 Y-9.194
N16310 X1.489 Y-9.135
N16315 X1.625 Y-9.073
N16320 X1.76 Y-9.007
N16325 X1.893 Y-8.938
N16330 X2.025 Y-8.866
N16335 X2.154 Y-8.79
N16340 X2.282 Y-8.712
N16345 X2.408 Y-8.63
N16350 X2.532 Y-8.546
N16355 X2.654 Y-8.458
N16360 X2.774 Y-8.368
N16365 X2.891 Y-8.275
N16370 X3.006 Y-8.179
N16375 X3.119 Y-8.08
N16380 X3.23 Y-7.979
N16385 X3.338 Y-7.875
N16390 X3.443 Y-7.768
N16395 X3.546 Y-7.659
N16400 X3.647 Y-7.548
N16405 X3.744 Y-7.434
N16410 X3.839 Y-7.317
N16415 X3.931 Y-7.199
N16420 X4.021 Y-7.078
N16425 X4.107 Y-6.956
N16430 X4.19 Y-6.831
N16435 X4.271 Y-6.705
N16440 X4.348 Y-6.576
N16445 X4.422 Y-6.446
N16450 X4.494 Y-6.314
N16455 X4.562 Y-6.18
N16460 X4.626 Y-6.045
N16465 X4.688 Y-5.908
N16470 X4.746 Y-5.77
N16475 X4.801 Y-5.63
N16480 X4.853 Y-5.489
N16485 X4.901 Y-5.347
N16490 X4.946 Y-5.204
N16495 X4.988 Y-5.06
N16500 X5.026 Y-4.915
N16505 X5.06 Y-4.769
N16510 X5.091 Y-4.622
N16515 X5.119 Y-4.475
N16520 X5.143 Y-4.327
N16525 X5.163 Y-4.178
N16530 X5.18 Y-4.029
N16535 X5.194 Y-3.88
N16540 X5.203 Y-3.73
N16545 X5.209 Y-3.58
N16550 X5.212 Y-3.43
N16555 X5.211 Y-3.28
N16560 X5.206 Y-3.13
N16565 X5.198 Y-2.98
N16570 X5.186 Y-2.831
N16575 X5.17 Y-2.682
N16580 X5.151 Y-2.533
N16585 X5.129 Y-2.385
N16590 X5.103 Y-2.237
N16595 X5.073 Y-2.09
N16600 X5.04 Y-1.944
N16605 X5.003 Y-1.798
N16610 X4.963 Y-1.654
N16615 X4.919 Y-1.51
N16620 X4.872 Y-1.368
N16625 X4.822 Y-1.227
N16630 X4.768 Y-1.087
N16635 X4.71 Y-0.948
N16640 X4.65 Y-0.811
N16645 X4.586 Y-0.675
N16650 X4.519 Y-0.541
N16655 X4.449 Y-0.408
N16660 X4.375 Y-0.278
N16665 X4.298 Y-0.149
N16670 X4.219 Y-0.022
N16675 X4.136 Y0.103
N16680 X4.05 Y0.227
N16685 X3.961 Y0.347
N16690 X3.87 Y0.466
N16695 X3.775 Y0.583
N16700 X3.678 Y0.697
N16705 X3.578 Y0.809
N16710 X3.475 Y0.918
N16715 X3.37 Y1.025
N16720 X3.262 Y1.129
N16725 X3.152 Y1.231
N16730 X3.039 Y1.33
N16735 X2.924 Y1.426
N16740 X2.807 Y1.52
N16745 X2.687 Y1.61
N16750 X2.566 Y1.698
N16755 X2.442 Y1.783
N16760 X2.316 Y1.865
N16765 X2.189 Y1.944
N16770 X2.059 Y2.019
N16775 X1.928 Y2.092
N16780 X1.795 Y2.161
N16785 X1.66 Y2.228
N16790 X1.524 Y2.291
N16795 X1.387 Y2.35
N16800 X1.248 Y2.407
N16805 X1.107 Y2.46
N16810 X0.966 Y2.51
N16815 X0.823 Y2.556
N16820 X0.679 Y2.599
N16825 X0.535 Y2.638
N16830 X0.389 Y2.674
N16835 X0.243 Y2.706
N16840 X0.095 Y2.735
N16845 X-0.052 Y2.761
N16850 X-0.201 Y2.782
N16855 X-0.35 Y2.801
N16860 X-0.499 Y2.816
N16865 X-0.649 Y2.827
N16870 X-0.798 Y2.834
N16875 X-0.948 Y2.839
N16880 X-1.098
N16885 X-1.248 Y2.836
N16890 X-1.398 Y2.83
N16895 X-1.548 Y2.819
N16900 X-1.697 Y2.806
N16905 X-1.846 Y2.789
N16910 X-1.995 Y2.768
N16915 X-2.143 Y2.744
N16920 X-2.29 Y2.716
N16925 X-2.437 Y2.685
N16930 X-2.583 Y2.65
N16935 X-2.728 Y2.612
N16940 X-2.872 Y2.57
N16945 X-3.015 Y2.525
N16950 X-3.157 Y2.477
N16955 X-3.298 Y2.425
N16960 X-3.437 Y2.37
N16965 X-3.576 Y2.312
N16970 X-3.712 Y2.25
N16975 X-3.848 Y2.185
N16980 X-3.981 Y2.117
N16985 X-4.113 Y2.046
N16990 X-4.244 Y1.972
N16995 X-4.372 Y1.895
N17000 X-4.499 Y1.814
N17005 X-4.624 Y1.731
N17010 X-4.746 Y1.645
N17015 X-4.867 Y1.556
N17020 X-4.986 Y1.464
N17025 X-5.102 Y1.369
N17030 X-5.216 Y1.272
N17035 X-5.328 Y1.172
N17040 X-5.437 Y1.069
N17045 X-5.544 Y0.964
N17050 X-5.648 Y0.856
N17055 X-5.75 Y0.746
N17060 X-5.85 Y0.633
N17065 X-5.946 Y0.519
N17070 X-6.04 Y0.402
N17075 X-6.131 Y0.282
N17080 X-6.219 Y0.161
N17085 X-6.304 Y0.038
N17090 X-6.387 Y-0.088
N17095 X-6.466 Y-0.215
N17100 X-6.542 Y-0.344
N17105 X-6.616 Y-0.475
N17110 X-6.686 Y-0.608
N17115 X-6.753 Y-0.742
N17120 X-6.817 Y-0.878
N17125 X-6.877 Y-1.015
N17130 X-6.935 Y-1.153
N17135 X-6.989 Y-1.293
N17140 X-7.039 Y-1.434
N17145 X-7.087 Y-1.577
N17150 X-7.131 Y-1.72
N17155 X-7.171 Y-1.865
N17160 X-7.209 Y-2.01
N17165 X-7.242 Y-2.156
N17170 X-7.273 Y-2.303
N17175 X-7.3 Y-2.451
N17180 X-7.323 Y-2.599
N17185 X-7.343 Y-2.747
N17190 X-7.359 Y-2.896
N17195 X-7.372 Y-3.046
N17200 X-7.382 Y-3.196
N17205 X-7.387 Y-3.346
N17210 X-7.39 Y-3.496
N17215 X-7.388 Y-3.645
N17220 X-7.384 Y-3.795
N17225 X-7.376 Y-3.945
N17230 X-7.364 Y-4.095
N17235 X-7.348 Y-4.244
N17240 X-7.33 Y-4.393
N17245 X-7.307 Y-4.541
N17250 X-7.281 Y-4.689
N17255 X-7.252 Y-4.836
N17260 X-7.219 Y-4.982
N17265 X-7.183 Y-5.128
N17270 X-7.143 Y-5.273
N17275 X-7.1 Y-5.416
N17280 X-7.054 Y-5.559
N17285 X-7.004 Y-5.7
N17290 X-6.951 Y-5.841
N17295 X-6.895 Y-5.98
N17300 X-6.835 Y-6.117
N17305 X-6.772 Y-6.253
N17310 X-6.706 Y-6.388
N17315 X-6.637 Y-6.521
N17320 X-6.564 Y-6.653
N17325 X-6.489 Y-6.782
N17330 X-6.411 Y-6.91
N17335 X-6.329 Y-7.036
N17340 X-6.245 Y-7.16
N17345 X-6.158 Y-7.282
N17350 X-6.067 Y-7.402
N17355 X-5.975 Y-7.52
N17360 X-5.879 Y-7.635
N17365 X-5.781 Y-7.749
N17370 X-5.68 Y-7.86
N17375 X-5.576 Y-7.968
N17380 X-5.47 Y-8.074
N17385 X-5.362 Y-8.178
N17390 X-5.251 Y-8.279
N17395 X-5.137 Y-8.377
N17400 X-5.022 Y-8.473
N17405 X-4.904 Y-8.565
N17410 X-4.784 Y-8.655
N17415 X-4.662 Y-8.743
N17420 X-4.538 Y-8.827
N17425 X-4.412 Y-8.908
N17430 X-4.284 Y-8.986
N17435 X-4.154 Y-9.062
N17440 X-4.022 Y-9.134
N17445 X-3.889 Y-9.203
N17450 X-3.755 Y-9.269
N17455 X-3.618 Y-9.332
N17460 X-3.481 Y-9.391
N17465 X-3.342 Y-9.447
N17470 X-3.201 Y-9.5
N17475 X-3.06 Y-9.55
N17480 X-2.917 Y-9.596
N17485 X-2.773 Y-9.639
N17490 X-2.629 Y-9.679
N17495 X-2.483 Y-9.715
N17500 X-2.337 Y-9.748
N17505 X-2.189 Y-9.777
N17510 X-2.042 Y-9.803
N17515 X-1.893 Y-9.825
N17520 X-1.745 Y-9.844
N17525 X-1.595 Y-9.859
N17530 X-1.446 Y-9.871
N17535 X-1.296 Y-9.879
N17540 X-1.146 Y-9.884
N17545 X-0.996 Y-9.885
N17550 X-0.846 Y-9.883
N17555 X-0.696 Y-9.877
N17560 X-0.547 Y-9.868
N17565 X-0.397 Y-9.855
N17570 X-0.248 Y-9.839
N17575 X-0.099 Y-9.819
N17580 X0.049 Y-9.795
N17585 X0.196 Y-9.768
N17590 X0.343 Y-9.738
N17595 X0.489 Y-9.704
N17600 X0.635 Y-9.667
N17605 X0.779 Y-9.626
N17610 X0.923 Y-9.582
N17615 X1.065 Y-9.535
N17620 X1.206 Y-9.485
N17625 X1.346 Y-9.431
N17630 X1.485 Y-9.374
N17635 X1.622 Y-9.313
N17640 X1.758 Y-9.25
N17645 X1.892 Y-9.183
N17650 X2.025 Y-9.113
N17655 X2.156 Y-9.041
N17660 X2.286 Y-8.965
N17665 X2.413 Y-8.886
N17670 X2.539 Y-8.804
N17675 X2.663 Y-8.72
N17680 X2.785 Y-8.632
N17685 X2.905 Y-8.542
N17690 X3.022 Y-8.449
N17695 X3.138 Y-8.353
N17700 X3.251 Y-8.255
N17705 X3.362 Y-8.154
N17710 X3.47 Y-8.05
N17715 X3.576 Y-7.944
N17720 X3.68 Y-7.835
N17725 X3.781 Y-7.725
N17730 X3.88 Y-7.611
N17735 X3.975 Y-7.496
N17740 X4.068 Y-7.378
N17745 X4.159 Y-7.259
N17750 X4.246 Y-7.137
N17755 X4.331 Y-7.013
N17760 X4.413 Y-6.888
N17765 X4.492 Y-6.76
N17770 X4.568 Y-6.631
N17775 X4.641 Y-6.5
N17780 X4.711 Y-6.367
N17785 X4.778 Y-6.233
N17790 X4.842 Y-6.097
N17795 X4.903 Y-5.96
N17800 X4.961 Y-5.822
N17805 X5.015 Y-5.682
N17810 X5.066 Y-5.541
N17815 X5.114 Y-5.399
N17820 X5.159 Y-5.255
N17825 X5.2 Y-5.111
N17830 X5.238 Y-4.966
N17835 X5.272 Y-4.82
N17840 X5.304 Y-4.673
N17845 X5.331 Y-4.526
N17850 X5.356 Y-4.378
N17855 X5.377 Y-4.229
N17860 X5.394 Y-4.08
N17865 X5.408 Y-3.931
N17870 X5.419 Y-3.781
N17875 X5.426 Y-3.632
N17880 X5.429 Y-3.482
N17885 Y-3.332
N17890 X5.426 Y-3.182
N17895 X5.419 Y-3.032
N17900 X5.409 Y-2.882
N17905 X5.395 Y-2.733
N17910 X5.378 Y-2.584
N17915 X5.357 Y-2.435
N17920 X5.333 Y-2.287
N17925 X5.305 Y-2.14
N17930 X5.274 Y-1.993
N17935 X5.24 Y-1.847
N17940 X5.202 Y-1.702
N17945 X5.161 Y-1.558
N17950 X5.117 Y-1.414
N17955 X5.069 Y-1.272
N17960 X5.018 Y-1.131
N17965 X4.964 Y-0.991
N17970 X4.906 Y-0.853
N17975 X4.846 Y-0.716
N17980 X4.782 Y-0.58
N17985 X4.715 Y-0.446
N17990 X4.644 Y-0.313
N17995 X4.571 Y-0.182
N18000 X4.495 Y-0.053
N18005 X4.415 Y0.074
N18010 X4.333 Y0.2
N18015 X4.248 Y0.323
N18020 X4.16 Y0.445
N18025 X4.069 Y0.564
N18030 X3.976 Y0.681
N18035 X3.879 Y0.796
N18040 X3.78 Y0.909
N18045 X3.679 Y1.019
N18050 X3.575 Y1.127
N18055 X3.468 Y1.233
N18060 X3.359 Y1.336
N18065 X3.248 Y1.437
N18070 X3.134 Y1.535
N18075 X3.018 Y1.63
N18080 X2.9 Y1.722
N18085 X2.78 Y1.812
N18090 X2.658 Y1.899
N18095 X2.534 Y1.983
N18100 X2.408 Y2.064
N18105 X2.28 Y2.143
N18110 X2.15 Y2.218
N18115 X2.019 Y2.29
N18120 X1.886 Y2.36
N18125 X1.751 Y2.426
N18130 X1.615 Y2.489
N18135 X1.477 Y2.549
N18140 X1.338 Y2.605
N18145 X1.198 Y2.659
N18150 X1.057 Y2.709
N18155 X0.914 Y2.756
N18160 X0.771 Y2.799
N18165 X0.626 Y2.839
N18170 X0.481 Y2.876
N18175 X0.335 Y2.91
N18180 X0.188 Y2.94
N18185 X0.04 Y2.966
N18190 X-0.108 Y2.99
N18195 X-0.257 Y3.009
N18200 X-0.406 Y3.026
N18205 X-0.555 Y3.039
N18210 X-0.705 Y3.048
N18215 X-0.855 Y3.055
N18220 X-1.005 Y3.057
N18225 X-1.155
N18230 X-1.305 Y3.052
N18235 X-1.455 Y3.045
N18240 X-1.604 Y3.034
N18245 X-1.753 Y3.019
N18250 X-1.902 Y3.001
N18255 X-2.051 Y2.98
N18260 X-2.199 Y2.955
N18265 X-2.346 Y2.927
N18270 X-2.493 Y2.896
N18275 X-2.639 Y2.861
N18280 X-2.784 Y2.823
N18285 X-2.928 Y2.781
N18290 X-3.071 Y2.737
N18295 X-3.213 Y2.689
N18300 X-3.354 Y2.637
N18305 X-3.494 Y2.583
N18310 X-3.633 Y2.525
N18315 X-3.77 Y2.464
N18320 X-3.905 Y2.401
N18325 X-4.039 Y2.333
N18330 X-4.172 Y2.263
N18335 X-4.303 Y2.19
N18340 X-4.432 Y2.114
N18345 X-4.56 Y2.035
N18350 X-4.685 Y1.953
N18355 X-4.809 Y1.868
N18360 X-4.931 Y1.781
N18365 X-5.051 Y1.69
N18370 X-5.168 Y1.597
N18375 X-5.284 Y1.502
N18380 X-5.397 Y1.403
N18385 X-5.508 Y1.303
N18390 X-5.617 Y1.199
N18395 X-5.723 Y1.093
N18400 X-5.827 Y0.985
N18405 X-5.929 Y0.875
N18410 X-6.027 Y0.762
N18415 X-6.124 Y0.647
N18420 X-6.217 Y0.53
N18425 X-6.308 Y0.41
N18430 X-6.396 Y0.289
N18435 X-6.482 Y0.166
N18440 X-6.564 Y0.04
N18445 X-6.644 Y-0.087
N18450 X-6.721 Y-0.216
N18455 X-6.795 Y-0.346
N18460 X-6.865 Y-0.478
N18465 X-6.933 Y-0.612
N18470 X-6.998 Y-0.748
N18475 X-7.059 Y-0.884
N18480 X-7.118 Y-1.023
N18485 X-7.173 Y-1.162
N18490 X-7.225 Y-1.303
N18495 X-7.274 Y-1.445
N18500 X-7.319 Y-1.587
N18505 X-7.361 Y-1.731
N18510 X-7.4 Y-1.876
N18515 X-7.436 Y-2.022
N18520 X-7.469 Y-2.168
N18525 X-7.498 Y-2.316
N18530 X-7.523 Y-2.463
N18535 X-7.546 Y-2.612
N18540 X-7.565 Y-2.76
N18545 X-7.58 Y-2.91
N18550 X-7.592 Y-3.059
N18555 X-7.601 Y-3.209
N18560 X-7.606 Y-3.359
N18565 X-7.608 Y-3.509
N18570 X-7.607 Y-3.659
N18575 X-7.602 Y-3.809
N18580 X-7.594 Y-3.958
N18585 X-7.582 Y-4.108
N18590 X-7.567 Y-4.257
N18595 X-7.549 Y-4.406
N18600 X-7.527 Y-4.555
N18605 X-7.501 Y-4.702
N18610 X-7.473 Y-4.85
N18615 X-7.441 Y-4.996
N18620 X-7.405 Y-5.142
N18625 X-7.367 Y-5.287
N18630 X-7.325 Y-5.431
N18635 X-7.279 Y-5.574
N18640 X-7.231 Y-5.716
N18645 X-7.179 Y-5.857
N18650 X-7.124 Y-5.996
N18655 X-7.066 Y-6.134
N18660 X-7.005 Y-6.271
N18665 X-6.941 Y-6.407
N18670 X-6.873 Y-6.541
N18675 X-6.803 Y-6.673
N18680 X-6.73 Y-6.804
N18685 X-6.653 Y-6.933
N18690 X-6.574 Y-7.061
N18695 X-6.492 Y-7.186
N18700 X-6.407 Y-7.31
N18705 X-6.319 Y-7.432
N18710 X-6.229 Y-7.551
N18715 X-6.135 Y-7.669
N18720 X-6.04 Y-7.784
N18725 X-5.941 Y-7.897
N18730 X-5.84 Y-8.008
N18735 X-5.737 Y-8.117
N18740 X-5.631 Y-8.223
N18745 X-5.523 Y-8.327
N18750 X-5.412 Y-8.428
N18755 X-5.299 Y-8.527
N18760 X-5.184 Y-8.623
N18765 X-5.066 Y-8.716
N18770 X-4.947 Y-8.807
N18775 X-4.825 Y-8.895
N18780 X-4.702 Y-8.98
N18785 X-4.577 Y-9.063
N18790 X-4.449 Y-9.142
N18795 X-4.32 Y-9.218
N18800 X-4.19 Y-9.292
N18805 X-4.057 Y-9.363
N18810 X-3.923 Y-9.43
N18815 X-3.788 Y-9.495
N18820 X-3.651 Y-9.556
N18825 X-3.513 Y-9.614
N18830 X-3.373 Y-9.67
N18835 X-3.233 Y-9.721
N18840 X-3.091 Y-9.77
N18845 X-2.948 Y-9.816
N18850 X-2.804 Y-9.858
N18855 X-2.659 Y-9.897
N18860 X-2.513 Y-9.933
N18865 X-2.367 Y-9.965
N18870 X-2.22 Y-9.994
N18875 X-2.072 Y-10.02
N18880 X-1.924 Y-10.042
N18885 X-1.775 Y-10.061
N18890 X-1.626 Y-10.076
N18895 X-1.476 Y-10.088
N18900 X-1.326 Y-10.097
N18905 X-1.176 Y-10.102
N18910 X-1.026 Y-10.104
N18915 X-0.876 Y-10.103
N18920 X-0.727 Y-10.098
N18925 X-0.577 Y-10.089
N18930 X-0.427 Y-10.078
N18935 X-0.278 Y-10.062
N18940 X-0.129 Y-10.044
N18945 X0.019 Y-10.022
N18950 X0.167 Y-9.997
N18955 X0.314 Y-9.968
N18960 X0.461 Y-9.936
N18965 X0.607 Y-9.901
N18970 X0.752 Y-9.862
N18975 X0.896 Y-9.82
N18980 X1.039 Y-9.775
N18985 X1.181 Y-9.727
N18990 X1.322 Y-9.675
N18995 X1.461 Y-9.621
N19000 X1.6 Y-9.563
N19005 X1.737 Y-9.502
N19010 X1.872 Y-9.438
N19015 X2.007 Y-9.371
N19020 X2.139 Y-9.301
N19025 X2.27 Y-9.228
N19030 X2.4 Y-9.152
N19035 X2.528 Y-9.074
N19040 X2.653 Y-8.992
N19045 X2.777 Y-8.908
N19050 X2.899 Y-8.82
N19055 X3.02 Y-8.73
N19060 X3.138 Y-8.638
N19065 X3.254 Y-8.543
N19070 X3.367 Y-8.445
N19075 X3.479 Y-8.345
N19080 X3.588 Y-8.242
N19085 X3.695 Y-8.137
N19090 X3.799 Y-8.029
N19095 X3.902 Y-7.919
N19100 X4.001 Y-7.807
N19105 X4.098 Y-7.693
N19110 X4.193 Y-7.576
N19115 X4.285 Y-7.458
N19120 X4.374 Y-7.337
N19125 X4.46 Y-7.214
N19130 X4.544 Y-7.09
N19135 X4.625 Y-6.964
N19140 X4.703 Y-6.836
N19145 X4.778 Y-6.706
N19150 X4.851 Y-6.575
N19155 X4.92 Y-6.442
N19160 X4.987 Y-6.307
N19165 X5.05 Y-6.171
N19170 X5.111 Y-6.034
N19175 X5.168 Y-5.895
N19180 X5.222 Y-5.755
N19185 X5.273 Y-5.614
N19190 X5.321 Y-5.472
N19195 X5.366 Y-5.329
N19200 X5.408 Y-5.185
N19205 X5.446 Y-5.04
N19210 X5.481 Y-4.894
N19215 X5.513 Y-4.748
N19220 X5.541 Y-4.6
N19225 X5.567 Y-4.452
N19230 X5.588 Y-4.304
N19235 X5.607 Y-4.155
N19240 X5.622 Y-4.006
N19245 X5.634 Y-3.856
N19250 X5.642 Y-3.707
N19255 X5.648 Y-3.557
N19260 X5.649 Y-3.407
N19265 X5.648 Y-3.257
N19270 X5.643 Y-3.107
N19275 X5.634 Y-2.957
N19280 X5.623 Y-2.808
N19285 X5.608 Y-2.658
N19290 X5.589 Y-2.509
N19295 X5.568 Y-2.361
N19300 X5.543 Y-2.213
N19305 X5.514 Y-2.066
N19310 X5.483 Y-1.919
N19315 X5.448 Y-1.773
N19320 X5.41 Y-1.628
N19325 X5.368 Y-1.484
N19330 X5.324 Y-1.341
N19335 X5.276 Y-1.199
N19340 X5.225 Y-1.058
N19345 X5.171 Y-0.918
N19350 X5.114 Y-0.779
N19355 X5.053 Y-0.642
N19360 X4.99 Y-0.506
N19365 X4.923 Y-0.371
N19370 X4.854 Y-0.239
N19375 X4.781 Y-0.107
N19380 X4.705 Y0.022
N19385 X4.627 Y0.15
N19390 X4.546 Y0.276
N19395 X4.462 Y0.401
N19400 X4.375 Y0.523
N19405 X4.285 Y0.643
N19410 X4.193 Y0.761
N19415 X4.098 Y0.877
N19420 X4. Y0.991
N19425 X3.9 Y1.103
N19430 X3.798 Y1.213
N19435 X3.693 Y1.32
N19440 X3.586 Y1.425
N19445 X3.476 Y1.527
N19450 X3.364 Y1.627
N19455 X3.25 Y1.724
N19460 X3.133 Y1.819
N19465 X3.015 Y1.911
N19470 X2.895 Y2.
N19475 X2.772 Y2.087
N19480 X2.648 Y2.171
N19485 X2.522 Y2.252
N19490 X2.394 Y2.331
N19495 X2.264 Y2.406
N19500 X2.133 Y2.478
N19505 X2. Y2.548
N19510 X1.866 Y2.615
N19515 X1.73 Y2.678
N19520 X1.592 Y2.739
N19525 X1.454 Y2.796
N19530 X1.314 Y2.85
N19535 X1.173 Y2.901
N19540 X1.031 Y2.949
N19545 X0.888 Y2.994
N19550 X0.743 Y3.035
N19555 X0.598 Y3.074
N19560 X0.453 Y3.109
N19565 X0.306 Y3.14
N19570 X0.159 Y3.169
N19575 X0.011 Y3.194
N19580 X-0.138 Y3.216
N19585 X-0.286 Y3.234
N19590 X-0.436 Y3.25
N19595 X-0.585 Y3.262
N19600 X-0.735 Y3.27
N19605 X-0.886 Y3.275
N19610 X-1.036 Y3.277
N19615 X-1.186 Y3.276
N19620 X-1.337 Y3.271
N19625 X-1.487 Y3.263
N19630 X-1.637 Y3.252
N19635 X-1.787 Y3.237
N19640 X-1.937 Y3.219
N19645 X-2.086 Y3.197
N19650 X-2.234 Y3.173
N19655 X-2.382 Y3.145
N19660 X-2.529 Y3.114
N19665 X-2.675 Y3.079
N19670 X-2.82 Y3.041
N19675 X-2.964 Y3.001
N19680 X-3.108 Y2.956
N19685 X-3.25 Y2.909
N19690 X-3.391 Y2.859
N19695 X-3.531 Y2.805
N19700 X-3.67 Y2.749
N19705 X-3.808 Y2.689
N19710 X-3.945 Y2.626
N19715 X-4.08 Y2.56
N19720 X-4.214 Y2.491
N19725 X-4.346 Y2.419
N19730 X-4.477 Y2.344
N19735 X-4.606 Y2.266
N19740 X-4.734 Y2.185
N19745 X-4.86 Y2.101
N19750 X-4.983 Y2.015
N19755 X-5.106 Y1.926
N19760 X-5.226 Y1.834
N19765 X-5.344 Y1.739
N19770 X-5.459 Y1.642
N19775 X-5.573 Y1.542
N19780 X-5.685 Y1.439
N19785 X-5.794 Y1.335
N19790 X-5.901 Y1.227
N19795 X-6.005 Y1.118
N19800 X-6.107 Y1.006
N19805 X-6.206 Y0.892
N19810 X-6.303 Y0.776
N19815 X-6.397 Y0.658
N19820 X-6.489 Y0.537
N19825 X-6.577 Y0.415
N19830 X-6.663 Y0.291
N19835 X-6.746 Y0.165
N19840 X-6.827 Y0.037
N19845 X-6.904 Y-0.092
N19850 X-6.978 Y-0.223
N19855 X-7.05 Y-0.356
N19860 X-7.119 Y-0.49
N19865 X-7.184 Y-0.625
N19870 X-7.247 Y-0.763
N19875 X-7.306 Y-0.901
N19880 X-7.363 Y-1.041
N19885 X-7.416 Y-1.182
N19890 X-7.466 Y-1.325
N19895 X-7.513 Y-1.468
N19900 X-7.557 Y-1.613
N19905 X-7.598 Y-1.759
N19910 X-7.635 Y-1.906
N19915 X-7.67 Y-2.053
N19920 X-7.701 Y-2.202
N19925 X-7.728 Y-2.351
N19930 X-7.752 Y-2.5
N19935 X-7.773 Y-2.65
N19940 X-7.791 Y-2.801
N19945 X-7.805 Y-2.952
N19950 X-7.816 Y-3.103
N19955 X-7.824 Y-3.254
N19960 X-7.828 Y-3.406
N19965 X-7.829 Y-3.557
N19970 X-7.826 Y-3.708
N19975 X-7.821 Y-3.859
N19980 X-7.811 Y-4.01
N19985 X-7.799 Y-4.161
N19990 X-7.783 Y-4.311
N19995 X-7.764 Y-4.461
N20000 X-7.741 Y-4.61
N20005 X-7.715 Y-4.759
N20010 X-7.686 Y-4.907
N20015 X-7.653 Y-5.055
N20020 X-7.618 Y-5.202
N20025 X-7.579 Y-5.348
N20030 X-7.536 Y-5.493
N20035 X-7.491 Y-5.637
N20040 X-7.442 Y-5.78
N20045 X-7.39 Y-5.923
N20050 X-7.335 Y-6.064
N20055 X-7.277 Y-6.203
N20060 X-7.216 Y-6.342
N20065 X-7.151 Y-6.479
N20070 X-7.084 Y-6.614
N20075 X-7.014 Y-6.748
N20080 X-6.94 Y-6.881
N20085 X-6.864 Y-7.011
N20090 X-6.785 Y-7.141
N20095 X-6.703 Y-7.268
N20100 X-6.618 Y-7.393
N20105 X-6.531 Y-7.517
N20110 X-6.44 Y-7.638
N20115 X-6.347 Y-7.758
N20120 X-6.252 Y-7.875
N20125 X-6.154 Y-7.99
N20130 X-6.053 Y-8.103
N20135 X-5.95 Y-8.213
N20140 X-5.845 Y-8.322
N20145 X-5.737 Y-8.427
N20150 X-5.627 Y-8.531
N20155 X-5.515 Y-8.632
N20160 X-5.4 Y-8.73
N20165 X-5.283 Y-8.826
N20170 X-5.164 Y-8.919
N20175 X-5.043 Y-9.01
N20180 X-4.92 Y-9.098
N20185 X-4.795 Y-9.183
N20190 X-4.668 Y-9.265
N20195 X-4.539 Y-9.345
N20200 X-4.409 Y-9.422
N20205 X-4.277 Y-9.496
N20210 X-4.143 Y-9.567
N20215 X-4.007 Y-9.635
N20220 X-3.87 Y-9.7
N20225 X-3.732 Y-9.762
N20230 X-3.592 Y-9.82
N20235 X-3.451 Y-9.876
N20240 X-3.308 Y-9.929
N20245 X-3.165 Y-9.978
N20250 X-3.02 Y-10.024
N20255 X-2.875 Y-10.067
N20260 X-2.729 Y-10.107
N20265 X-2.582 Y-10.143
N20270 X-2.434 Y-10.177
N20275 X-2.286 Y-10.206
N20280 X-2.137 Y-10.233
N20285 X-1.987 Y-10.256
N20290 X-1.838 Y-10.276
N20295 X-1.688 Y-10.292
N20300 X-1.537 Y-10.305
N20305 X-1.387 Y-10.315
N20310 X-1.236 Y-10.322
N20315 X-1.084 Y-10.325
N20320 X-0.933
N20325 X-0.782 Y-10.321
N20330 X-0.631 Y-10.314
N20335 X-0.479 Y-10.304
N20340 X-0.328 Y-10.29
N20345 X-0.177 Y-10.273
N20350 X-0.027 Y-10.252
N20355 X0.123 Y-10.228
N20360 X0.273 Y-10.201
N20365 X0.422 Y-10.171
N20370 X0.571 Y-10.137
N20375 X0.719 Y-10.1
N20380 X0.866 Y-10.059
N20385 X1.012 Y-10.015
N20390 X1.158 Y-9.968
N20395 X1.302 Y-9.918
N20400 X1.445 Y-9.865
N20405 X1.588 Y-9.808
N20410 X1.728 Y-9.748
N20415 X1.868 Y-9.685
N20420 X2.006 Y-9.619
N20425 X2.143 Y-9.55
N20430 X2.278 Y-9.477
N20435 X2.412 Y-9.402
N20440 X2.543 Y-9.324
N20445 X2.673 Y-9.243
N20450 X2.801 Y-9.159
N20455 X2.928 Y-9.072
N20460 X3.052 Y-8.983
N20465 X3.174 Y-8.891
N20470 X3.295 Y-8.796
N20475 X3.413 Y-8.698
N20480 X3.529 Y-8.597
N20485 X3.643 Y-8.494
N20490 X3.755 Y-8.389
N20495 X3.864 Y-8.281
N20500 X3.971 Y-8.17
N20505 X4.076 Y-8.057
N20510 X4.178 Y-7.942
N20515 X4.277 Y-7.824
N20520 X4.375 Y-7.704
N20525 X4.469 Y-7.582
N20530 X4.561 Y-7.457
N20535 X4.65 Y-7.331
N20540 X4.736 Y-7.203
N20545 X4.819 Y-7.072
N20550 X4.899 Y-6.94
N20555 X4.977 Y-6.806
N20560 X5.051 Y-6.671
N20565 X5.123 Y-6.533
N20570 X5.191 Y-6.395
N20575 X5.256 Y-6.254
N20580 X5.318 Y-6.113
N20585 X5.377 Y-5.97
N20590 X5.433 Y-5.826
N20595 X5.485 Y-5.681
N20600 X5.534 Y-5.535
N20605 X5.58 Y-5.388
N20610 X5.623 Y-5.24
N20615 X5.662 Y-5.091
N20620 X5.698 Y-4.941
N20625 X5.73 Y-4.791
N20630 X5.76 Y-4.64
N20635 X5.785 Y-4.489
N20640 X5.808 Y-4.337
N20645 X5.827 Y-4.184
N20650 X5.843 Y-4.031
N20655 X5.855 Y-3.878
N20660 X5.864 Y-3.724
N20665 X5.869 Y-3.571
N20670 X5.871 Y-3.417
N20675 X5.87 Y-3.263
N20680 X5.865 Y-3.11
N20685 X5.857 Y-2.956
N20690 X5.845 Y-2.803
N20695 X5.83 Y-2.65
N20700 X5.812 Y-2.497
N20705 X5.79 Y-2.345
N20710 X5.765 Y-2.193
N20715 X5.736 Y-2.042
N20720 X5.704 Y-1.892
N20725 X5.669 Y-1.743
N20730 X5.63 Y-1.594
N20735 X5.589 Y-1.447
N20740 X5.544 Y-1.3
N20745 X5.496 Y-1.155
N20750 X5.444 Y-1.011
N20755 X5.39 Y-0.868
N20760 X5.332 Y-0.726
N20765 X5.271 Y-0.586
N20770 X5.207 Y-0.448
N20775 X5.141 Y-0.31
N20780 X5.071 Y-0.175
N20785 X4.998 Y-0.041
N20790 X4.922 Y0.092
N20795 X4.843 Y0.223
N20800 X4.761 Y0.352
N20805 X4.676 Y0.479
N20810 X4.589 Y0.604
N20815 X4.499 Y0.728
N20820 X4.405 Y0.85
N20825 X4.31 Y0.969
N20830 X4.211 Y1.087
N20835 X4.11 Y1.202
N20840 X4.006 Y1.315
N20845 X3.9 Y1.426
N20850 X3.791 Y1.534
N20855 X3.68 Y1.64
N20860 X3.566 Y1.744
N20865 X3.45 Y1.845
N20870 X3.332 Y1.943
N20875 X3.212 Y2.039
N20880 X3.09 Y2.132
N20885 X2.965 Y2.223
N20890 X2.839 Y2.31
N20895 X2.711 Y2.395
N20900 X2.58 Y2.477
N20905 X2.449 Y2.556
N20910 X2.315 Y2.631
N20915 X2.18 Y2.704
N20920 X2.043 Y2.774
N20925 X1.905 Y2.841
N20930 X1.765 Y2.905
N20935 X1.624 Y2.966
N20940 X1.482 Y3.023
N20945 X1.338 Y3.078
N20950 X1.193 Y3.129
N20955 X1.046 Y3.177
N20960 X0.899 Y3.222
N20965 X0.75 Y3.263
N20970 X0.601 Y3.301
N20975 X0.45 Y3.336
N20980 X0.299 Y3.368
N20985 X0.147 Y3.396
N20990 X-0.005 Y3.421
N20995 X-0.159 Y3.442
N21000 X-0.313 Y3.46
N21005 X-0.467 Y3.475
N21010 X-0.621 Y3.486
N21015 X-0.776 Y3.494
N21020 X-0.931 Y3.498
N21025 X-1.087 Y3.499
N21030 X-1.242 Y3.497
N21035 X-1.397 Y3.491
N21040 X-1.552 Y3.481
N21045 X-1.707 Y3.468
N21050 X-1.861 Y3.452
N21055 X-2.015 Y3.432
N21060 X-2.168 Y3.409
N21065 X-2.321 Y3.383
N21070 X-2.473 Y3.353
N21075 X-2.625 Y3.32
N21080 X-2.775 Y3.283
N21085 X-2.925 Y3.243
N21090 X-3.074 Y3.2
N21095 X-3.222 Y3.153
N21100 X-3.369 Y3.103
N21105 X-3.515 Y3.05
N21110 X-3.659 Y2.993
N21115 X-3.803 Y2.934
N21120 X-3.945 Y2.871
N21125 X-4.086 Y2.805
N21130 X-4.225 Y2.736
N21135 X-4.363 Y2.663
N21140 X-4.499 Y2.588
N21145 X-4.633 Y2.51
N21150 X-4.766 Y2.428
N21155 X-4.897 Y2.344
N21160 X-5.027 Y2.256
N21165 X-5.154 Y2.166
N21170 X-5.279 Y2.073
N21175 X-5.402 Y1.977
N21180 X-5.524 Y1.879
N21185 X-5.642 Y1.778
N21190 X-5.759 Y1.674
N21195 X-5.873 Y1.567
N21200 X-5.985 Y1.458
N21205 X-6.095 Y1.347
N21210 X-6.201 Y1.233
N21215 X-6.306 Y1.117
N21220 X-6.407 Y0.999
N21225 X-6.506 Y0.878
N21230 X-6.603 Y0.756
N21235 X-6.696 Y0.631
N21240 X-6.787 Y0.504
N21245 X-6.875 Y0.375
N21250 X-6.96 Y0.245
N21255 X-7.042 Y0.112
N21260 X-7.121 Y-0.022
N21265 X-7.197 Y-0.158
N21270 X-7.27 Y-0.296
N21275 X-7.34 Y-0.435
N21280 X-7.406 Y-0.576
N21285 X-7.47 Y-0.718
N21290 X-7.531 Y-0.862
N21295 X-7.588 Y-1.007
N21300 X-7.642 Y-1.153
N21305 X-7.693 Y-1.301
N21310 X-7.741 Y-1.45
N21315 X-7.785 Y-1.6
N21320 X-7.826 Y-1.75
N21325 X-7.863 Y-1.902
N21330 X-7.898 Y-2.055
N21335 X-7.929 Y-2.208
N21340 X-7.956 Y-2.362
N21345 X-7.98 Y-2.516
N21350 X-8.001 Y-2.671
N21355 X-8.018 Y-2.827
N21360 X-8.031 Y-2.983
N21365 X-8.041 Y-3.139
N21370 X-8.048 Y-3.295
N21375 X-8.051 Y-3.451
N21380 Y-3.607
N21385 X-8.047 Y-3.763
N21390 X-8.04 Y-3.919
N21395 X-8.03 Y-4.075
N21400 X-8.016 Y-4.23
N21405 X-7.998 Y-4.385
N21410 X-7.977 Y-4.54
N21415 X-7.953 Y-4.694
N21420 X-7.925 Y-4.848
N21425 X-7.894 Y-5.001
N21430 X-7.859 Y-5.153
N21435 X-7.821 Y-5.305
N21440 X-7.779 Y-5.455
N21445 X-7.735 Y-5.605
N21450 X-7.687 Y-5.754
N21455 X-7.635 Y-5.901
N21460 X-7.581 Y-6.048
N21465 X-7.523 Y-6.193
N21470 X-7.462 Y-6.337
N21475 X-7.397 Y-6.479
N21480 X-7.33 Y-6.62
N21485 X-7.26 Y-6.76
N21490 X-7.186 Y-6.898
N21495 X-7.109 Y-7.034
N21500 X-7.03 Y-7.168
N21505 X-6.947 Y-7.301
N21510 X-6.861 Y-7.432
N21515 X-6.773 Y-7.56
N21520 X-6.682 Y-7.687
N21525 X-6.588 Y-7.812
N21530 X-6.491 Y-7.935
N21535 X-6.391 Y-8.055
N21540 X-6.289 Y-8.173
N21545 X-6.185 Y-8.289
N21550 X-6.077 Y-8.402
N21555 X-5.968 Y-8.513
N21560 X-5.856 Y-8.622
N21565 X-5.741 Y-8.728
N21570 X-5.624 Y-8.831
N21575 X-5.505 Y-8.932
N21580 X-5.384 Y-9.03
N21585 X-5.26 Y-9.126
N21590 X-5.134 Y-9.219
N21595 X-5.006 Y-9.309
N21600 X-4.877 Y-9.396
N21605 X-4.745 Y-9.48
N21610 X-4.611 Y-9.562
N21615 X-4.476 Y-9.64
N21620 X-4.339 Y-9.715
N21625 X-4.2 Y-9.788
N21630 X-4.06 Y-9.857
N21635 X-3.918 Y-9.923
N21640 X-3.774 Y-9.986
N21645 X-3.63 Y-10.045
N21650 X-3.484 Y-10.102
N21655 X-3.336 Y-10.155
N21660 X-3.188 Y-10.205
N21665 X-3.039 Y-10.252
N21670 X-2.889 Y-10.295
N21675 X-2.737 Y-10.335
N21680 X-2.585 Y-10.371
N21685 X-2.433 Y-10.404
N21690 X-2.279 Y-10.434
N21695 X-2.126 Y-10.46
N21700 X-1.971 Y-10.483
N21705 X-1.816 Y-10.503
N21710 X-1.661 Y-10.518
N21715 X-1.505 Y-10.531
N21720 X-1.349 Y-10.54
N21725 X-1.193 Y-10.546
N21730 X-1.036 Y-10.548
N21735 X-0.88 Y-10.546
N21740 X-0.723 Y-10.541
N21745 X-0.567 Y-10.533
N21750 X-0.411 Y-10.521
N21755 X-0.255 Y-10.506
N21760 X-0.099 Y-10.487
N21765 X0.057 Y-10.465
N21770 X0.212 Y-10.439
N21775 X0.366 Y-10.41
N21780 X0.52 Y-10.378
N21785 X0.673 Y-10.341
N21790 X0.826 Y-10.302
N21795 X0.977 Y-10.259
N21800 X1.128 Y-10.213
N21805 X1.278 Y-10.163
N21810 X1.426 Y-10.11
N21815 X1.574 Y-10.054
N21820 X1.72 Y-9.995
N21825 X1.865 Y-9.932
N21830 X2.008 Y-9.866
N21835 X2.151 Y-9.797
N21840 X2.291 Y-9.724
N21845 X2.43 Y-9.649
N21850 X2.567 Y-9.57
N21855 X2.702 Y-9.489
N21860 X2.836 Y-9.404
N21865 X2.968 Y-9.316
N21870 X3.098 Y-9.226
N21875 X3.225 Y-9.132
N21880 X3.351 Y-9.036
N21885 X3.475 Y-8.937
N21890 X3.596 Y-8.835
N21895 X3.716 Y-8.731
N21900 X3.833 Y-8.623
N21905 X3.947 Y-8.513
N21910 X4.059 Y-8.401
N21915 X4.169 Y-8.286
N21920 X4.276 Y-8.168
N21925 X4.381 Y-8.049
N21930 X4.483 Y-7.926
N21935 X4.582 Y-7.802
